;FLAVOR:UltiGCode
;TIME:584
;MATERIAL:1301
;MATERIAL2:0
;NOZZLE_DIAMETER:0.4
;MINX:94.318
;MINY:95.409
;MINZ:0.27
;MAXX:122.539
;MAXY:116.364
;MAXZ:6.27
;Generated with Cura_SteamEngine 4.12.1
M82 ;absolute extrusion mode
G0 F3000 Y50 ;avoid prime blob
G92 E0
G92 E0
G10
;LAYER_COUNT:31
;LAYER:0
M107
;MESH:Body1.stl(3)
G0 F4500 X104.587 Y103.821 Z0.27
;TYPE:WALL-INNER
G11
G1 F1800 X105.206 Y103.941 E0.05958
G1 X105.837 Y103.941 E0.11921
G1 X106.458 Y103.821 E0.17898
G1 X107.046 Y103.588 E0.23875
G1 X107.58 Y103.245 E0.29873
G1 X108.04 Y102.807 E0.35875
G1 X108.405 Y102.292 E0.4184
G1 X108.668 Y101.717 E0.47816
G1 X108.817 Y101.1 E0.53814
G1 X108.847 Y100.47 E0.59774
G1 X108.759 Y99.842 E0.65767
G1 X108.551 Y99.243 E0.71759
G1 X108.233 Y98.696 E0.77738
G1 X107.82 Y98.218 E0.83708
G1 X107.321 Y97.825 E0.8971
G1 X106.759 Y97.536 E0.95682
G1 X106.149 Y97.357 E1.0169
G1 X105.514 Y97.299 E1.07715
G1 X104.892 Y97.357 E1.13619
G1 X104.285 Y97.536 E1.19599
G1 X103.72 Y97.825 E1.25596
G1 X103.224 Y98.218 E1.31576
G1 X102.81 Y98.696 E1.37552
G1 X102.493 Y99.244 E1.43535
G1 X102.285 Y99.842 E1.49518
G1 X102.196 Y100.468 E1.55493
G1 X102.226 Y101.101 E1.61482
G1 X102.375 Y101.717 E1.67471
G1 X102.638 Y102.293 E1.73455
G1 X103.007 Y102.809 E1.79449
G1 X103.462 Y103.243 E1.85392
G1 X103.995 Y103.588 E1.91391
G1 X104.587 Y103.821 E1.97404
G10
G0 F4500 X105.853 Y104.097
G0 X106.051 Y104.362
G11
G1 F1800 X105.585 Y104.398 E2.0182
G1 X105.105 Y104.377 E2.06361
G1 X104.661 Y104.3 E2.10619
G1 X104.197 Y104.158 E2.15205
G1 X103.764 Y103.965 E2.19685
G1 X103.371 Y103.726 E2.24031
G1 X103.005 Y103.436 E2.28444
G1 X102.674 Y103.1 E2.32901
G1 X102.393 Y102.735 E2.37254
G1 X102.151 Y102.321 E2.41786
G1 X101.962 Y101.878 E2.46337
G1 X101.842 Y101.456 E2.50483
G1 X101.765 Y100.981 E2.55031
G1 X101.752 Y100.522 E2.5937
G1 X101.795 Y100.042 E2.63924
G1 X101.898 Y99.577 E2.68425
G1 X102.056 Y99.135 E2.72861
G1 X102.262 Y98.727 E2.7718
G1 X102.525 Y98.334 E2.81649
G1 X102.84 Y97.974 E2.86169
G1 X103.176 Y97.671 E2.90445
G1 X103.571 Y97.398 E2.94982
G1 X103.982 Y97.182 E2.9937
G1 X104.431 Y97.015 E3.03897
G1 X104.877 Y96.909 E3.08229
G1 X105.342 Y96.857 E3.12651
G1 X105.81 Y96.867 E3.17074
G1 X106.28 Y96.931 E3.21557
G1 X106.74 Y97.055 E3.26059
G1 X107.163 Y97.23 E3.30385
G1 X107.58 Y97.464 E3.34903
G1 X107.947 Y97.737 E3.39226
G1 X108.294 Y98.068 E3.43758
G1 X108.599 Y98.443 E3.48326
G1 X108.825 Y98.803 E3.52342
G1 X109.039 Y99.265 E3.57154
G1 X109.178 Y99.696 E3.61433
G1 X109.266 Y100.168 E3.65971
G1 X109.296 Y100.614 E3.70195
G1 X109.267 Y101.08 E3.74607
G1 X109.179 Y101.558 E3.792
G1 X109.037 Y102 E3.83587
G1 X108.843 Y102.418 E3.87942
G1 X108.587 Y102.828 E3.9251
G1 X108.295 Y103.186 E3.96876
G1 X107.956 Y103.509 E4.013
G1 X107.579 Y103.79 E4.05744
G1 X106.957 Y104.116 E4.1238
G1 X106.511 Y104.266 E4.16827
G1 X106.051 Y104.362 E4.21268
G0 F4500 X106.102 Y104.709
G1 F1800 X105.589 Y104.749 E4.2613
G1 X105.07 Y104.726 E4.31039
G1 X104.576 Y104.641 E4.35776
G1 X104.077 Y104.488 E4.40709
G1 X103.601 Y104.276 E4.45633
G1 X103.169 Y104.013 E4.50412
G1 X102.772 Y103.699 E4.55195
G1 X102.413 Y103.334 E4.60033
G1 X102.1 Y102.927 E4.64885
G1 X101.837 Y102.477 E4.69811
G1 X101.631 Y101.995 E4.74764
G1 X101.499 Y101.533 E4.79305
G1 X101.416 Y101.016 E4.84253
G1 X101.401 Y100.509 E4.89047
G1 X101.448 Y99.988 E4.9399
G1 X101.559 Y99.486 E4.98848
G1 X101.735 Y98.995 E5.03777
G1 X101.962 Y98.546 E5.08532
G1 X102.246 Y98.122 E5.13355
G1 X102.588 Y97.73 E5.18271
G1 X102.96 Y97.395 E5.23001
G1 X103.391 Y97.097 E5.27953
G1 X103.837 Y96.863 E5.32713
G1 X104.326 Y96.681 E5.37643
G1 X104.822 Y96.563 E5.42461
G1 X105.325 Y96.507 E5.47244
G1 X105.839 Y96.517 E5.52102
G1 X106.348 Y96.587 E5.56958
G1 X106.85 Y96.722 E5.6187
G1 X107.316 Y96.915 E5.66637
G1 X107.774 Y97.172 E5.71599
G1 X108.173 Y97.468 E5.76294
G1 X108.554 Y97.832 E5.81274
G1 X108.88 Y98.233 E5.86158
G1 X109.136 Y98.641 E5.90709
G1 X109.365 Y99.135 E5.95855
G1 X109.518 Y99.608 E6.00553
G1 X109.614 Y100.123 E6.05503
G1 X109.646 Y100.614 E6.10153
G1 X109.615 Y101.125 E6.14991
G1 X109.519 Y101.643 E6.19969
G1 X109.364 Y102.125 E6.24754
G1 X109.149 Y102.588 E6.29578
G1 X108.873 Y103.03 E6.34502
G1 X108.554 Y103.422 E6.39278
G1 X108.177 Y103.781 E6.44198
G1 X107.77 Y104.084 E6.48993
G1 X107.322 Y104.336 E6.5385
G1 X107.084 Y104.443 E6.56316
G1 X106.601 Y104.605 E6.6113
G1 X106.102 Y104.709 E6.65947
G10
G0 F4500 X104.702 Y104.13
G0 X104.685 Y103.484
G11
G1 F1800 X105.239 Y103.591 E6.71279
G1 X105.804 Y103.591 E6.76619
G1 X106.359 Y103.484 E6.8196
G1 X106.886 Y103.275 E6.87317
G1 X107.363 Y102.969 E6.92673
G1 X107.774 Y102.577 E6.9804
G1 X108.1 Y102.116 E7.03376
G1 X108.336 Y101.602 E7.08721
G1 X108.469 Y101.05 E7.14086
G1 X108.496 Y100.486 E7.19422
G1 X108.417 Y99.925 E7.24776
G1 X108.231 Y99.39 E7.30129
G1 X107.947 Y98.9 E7.35481
G1 X107.577 Y98.472 E7.40827
G1 X107.131 Y98.121 E7.4619
G1 X106.628 Y97.862 E7.51537
G1 X106.083 Y97.702 E7.56904
G1 X105.514 Y97.65 E7.62304
G1 X104.958 Y97.702 E7.67581
G1 X104.415 Y97.862 E7.72931
G1 X103.91 Y98.121 E7.78294
G1 X103.467 Y98.472 E7.83635
G1 X103.096 Y98.9 E7.88988
G1 X102.813 Y99.39 E7.94335
G1 X102.627 Y99.925 E7.99687
G1 X102.547 Y100.485 E8.05033
G1 X102.574 Y101.051 E8.10388
G1 X102.707 Y101.602 E8.15744
G1 X102.942 Y102.117 E8.21094
G1 X103.272 Y102.578 E8.26452
G1 X103.68 Y102.967 E8.31779
G1 X104.156 Y103.275 E8.37136
G1 X104.685 Y103.484 E8.42512
G0 F4500 X104.783 Y103.147
G1 F1800 X105.272 Y103.241 E8.47217
G1 X105.771 Y103.241 E8.51933
G1 X106.26 Y103.147 E8.56638
G1 X106.725 Y102.962 E8.61368
G1 X107.146 Y102.692 E8.66094
G1 X107.508 Y102.347 E8.7082
G1 X107.796 Y101.94 E8.75531
G1 X108.004 Y101.487 E8.80242
G1 X108.121 Y101 E8.84975
G1 X108.145 Y100.502 E8.89687
G1 X108.075 Y100.008 E8.94401
G1 X107.911 Y99.536 E8.99123
G1 X107.661 Y99.104 E9.0384
G1 X107.334 Y98.726 E9.08563
G1 X106.941 Y98.417 E9.13288
G1 X106.497 Y98.188 E9.18009
G1 X106.017 Y98.047 E9.22736
G1 X105.514 Y98.001 E9.2751
G1 X105.024 Y98.047 E9.3216
G1 X104.546 Y98.188 E9.3687
G1 X104.1 Y98.417 E9.41608
G1 X103.71 Y98.726 E9.4631
G1 X103.382 Y99.104 E9.51039
G1 X103.133 Y99.536 E9.55751
G1 X102.969 Y100.008 E9.60473
G1 X102.898 Y100.502 E9.65189
G1 X102.922 Y101.001 E9.6991
G1 X103.039 Y101.487 E9.74634
G1 X103.246 Y101.941 E9.7935
G1 X103.537 Y102.347 E9.8407
G1 X103.898 Y102.691 E9.88782
G1 X104.317 Y102.962 E9.93498
G1 X104.783 Y103.147 E9.98236
G10
G0 F4500 X104.755 Y103.243
G0 X105.853 Y104.097
G0 X106.139 Y104.957
G11
G0 X106.153 Y105.056
G1 F1800 X105.592 Y105.1 E10.03554
G1 X105.035 Y105.075 E10.08823
G1 X104.493 Y104.982 E10.14019
G1 X103.951 Y104.816 E10.19376
G1 X103.441 Y104.588 E10.24655
G1 X102.967 Y104.3 E10.29897
G1 X102.539 Y103.962 E10.3505
G1 X102.147 Y103.563 E10.40336
G1 X101.81 Y103.124 E10.45566
G1 X101.523 Y102.633 E10.50941
G1 X101.303 Y102.119 E10.56224
G1 X101.155 Y101.602 E10.61306
G1 X101.067 Y101.05 E10.66588
G1 X101.05 Y100.496 E10.71826
G1 X101.101 Y99.935 E10.77149
G1 X101.222 Y99.388 E10.82443
G1 X101.41 Y98.862 E10.87722
G1 X101.662 Y98.365 E10.92988
G1 X101.967 Y97.91 E10.98164
G1 X102.336 Y97.486 E11.03476
G1 X102.744 Y97.119 E11.08662
G1 X103.207 Y96.798 E11.13986
G1 X103.696 Y96.542 E11.19202
G1 X104.228 Y96.344 E11.24566
G1 X104.76 Y96.218 E11.29733
G1 X105.308 Y96.157 E11.34943
G1 X105.868 Y96.167 E11.40236
G1 X106.416 Y96.243 E11.45464
G1 X106.96 Y96.389 E11.50787
G1 X107.473 Y96.601 E11.56033
G1 X107.961 Y96.876 E11.61326
G1 X108.402 Y97.203 E11.66514
G1 X108.809 Y97.592 E11.71835
G1 X109.164 Y98.028 E11.77148
G1 X109.447 Y98.479 E11.82179
G1 X109.691 Y99.005 E11.87659
G1 X109.858 Y99.52 E11.92775
G1 X109.962 Y100.078 E11.98139
G1 X109.996 Y100.614 E12.03214
G1 X109.963 Y101.17 E12.08478
G1 X109.859 Y101.728 E12.13842
G1 X109.691 Y102.25 E12.19024
G1 X109.455 Y102.758 E12.24317
G1 X109.159 Y103.232 E12.29598
G1 X108.809 Y103.662 E12.34837
G1 X108.403 Y104.05 E12.40144
G1 X107.961 Y104.378 E12.45346
G1 X107.477 Y104.651 E12.50597
G1 X107.213 Y104.769 E12.5333
G1 X106.694 Y104.944 E12.58506
G1 X106.153 Y105.056 E12.63726
G0 F4500 X106.197 Y105.379
;TYPE:WALL-OUTER
G1 F1800 X105.594 Y105.426 E12.69442
G1 X105.005 Y105.399 E12.75014
G1 X104.414 Y105.298 E12.8068
G1 X103.835 Y105.121 E12.86401
G1 X103.29 Y104.877 E12.92044
G1 X102.785 Y104.57 E12.97629
G1 X102.318 Y104.201 E13.03254
G1 X101.901 Y103.777 E13.08874
G1 X101.539 Y103.305 E13.14495
G1 X101.232 Y102.78 E13.20242
G1 X100.998 Y102.232 E13.25873
G1 X100.837 Y101.67 E13.31397
G1 X100.743 Y101.08 E13.37043
G1 X100.724 Y100.485 E13.42669
G1 X100.778 Y99.89 E13.48315
G1 X100.91 Y99.294 E13.54083
G1 X101.111 Y98.733 E13.59715
G1 X101.381 Y98.201 E13.65353
G1 X101.706 Y97.715 E13.70878
G1 X102.106 Y97.255 E13.76638
G1 X102.541 Y96.865 E13.82159
G1 X103.041 Y96.518 E13.87911
G1 X103.564 Y96.244 E13.9349
G1 X104.13 Y96.034 E13.99195
G1 X104.706 Y95.897 E14.0479
G1 X105.293 Y95.832 E14.10371
G1 X105.894 Y95.842 E14.16052
G1 X106.48 Y95.924 E14.21643
G1 X107.061 Y96.08 E14.27328
G1 X107.619 Y96.31 E14.33032
G1 X108.139 Y96.603 E14.38672
G1 X108.608 Y96.951 E14.44191
G1 X109.049 Y97.372 E14.49952
G1 X109.426 Y97.835 E14.55595
G1 X109.736 Y98.33 E14.61114
G1 X109.993 Y98.882 E14.66868
G1 X110.173 Y99.439 E14.724
G1 X110.285 Y100.038 E14.78158
G1 X110.321 Y100.614 E14.83612
G1 X110.285 Y101.216 E14.89311
G1 X110.176 Y101.803 E14.94953
G1 X109.993 Y102.372 E15.00602
G1 X109.742 Y102.913 E15.06238
G1 X109.426 Y103.419 E15.11875
G1 X109.049 Y103.882 E15.17517
G1 X108.609 Y104.302 E15.23266
G1 X108.139 Y104.651 E15.28798
G1 X107.619 Y104.944 E15.34438
G1 X107.335 Y105.071 E15.37378
G1 X106.782 Y105.258 E15.42895
G1 X106.197 Y105.379 E15.4854
G0 F4500 X105.998 Y105.394
G10
G0 X105.966 Y104.971
G0 X104.702 Y104.13
G0 X104.794 Y103.25
G11
G0 X104.874 Y102.834
G1 F1800 X105.303 Y102.916 E15.52667
G1 X105.74 Y102.916 E15.56797
G1 X106.169 Y102.834 E15.60924
G1 X106.576 Y102.672 E15.65064
G1 X106.944 Y102.435 E15.692
G1 X107.261 Y102.133 E15.73338
G1 X107.513 Y101.777 E15.7746
G1 X107.695 Y101.38 E15.81587
G1 X107.798 Y100.954 E15.85728
G1 X107.819 Y100.517 E15.89863
G1 X107.758 Y100.085 E15.93986
G1 X107.614 Y99.672 E15.98119
G1 X107.395 Y99.293 E16.02256
G1 X107.109 Y98.962 E16.06389
G1 X106.765 Y98.692 E16.10522
G1 X106.376 Y98.491 E16.1466
G1 X105.956 Y98.368 E16.18795
G1 X105.514 Y98.327 E16.2299
G1 X105.086 Y98.368 E16.27053
G1 X104.667 Y98.491 E16.3118
G1 X104.277 Y98.692 E16.35326
G1 X103.935 Y98.962 E16.39444
G1 X103.648 Y99.293 E16.43584
G1 X103.43 Y99.672 E16.47716
G1 X103.286 Y100.085 E16.51849
G1 X103.224 Y100.517 E16.55973
G1 X103.245 Y100.955 E16.60117
G1 X103.348 Y101.38 E16.6425
G1 X103.529 Y101.777 E16.68373
G1 X103.784 Y102.133 E16.72511
G1 X104.1 Y102.435 E16.76642
G1 X104.467 Y102.672 E16.8077
G1 X104.874 Y102.834 E16.8491
G0 F4500 X105.07 Y102.871
G10
G0 X104.99 Y103.288
G0 X105.774 Y103.28
G0 X106.743 Y102.997
G0 X107.538 Y102.373
G0 X108.041 Y101.5
G0 X108.184 Y100.501
G0 X107.909 Y99.477
G0 X108.432 Y98.691
G11
G0 X108.533 Y98.634
;TYPE:SKIN
G1 F1800 X107.498 Y97.599 E16.98742
G1 X107.436 Y97.537
G10
G0 F4500 X107.466 Y97.487
G0 X108.197 Y98.163
G0 X108.704 Y98.864
G11
G0 X108.753 Y99.348
G1 F1800 X108.969 Y99.564 E17.01628
G10
G0 F4500 X109.049 Y99.541
G0 X108.489 Y98.523
G0 X107.851 Y97.834
G0 X107.102 Y97.352
G11
G0 X106.784 Y97.379
G1 F1800 X106.579 Y97.174 E17.04368
G0 F4500 X106.104 Y97.194
G1 F1800 X105.954 Y97.044 E17.06373
G10
G0 F4500 X105.965 Y96.964
G0 X107.102 Y97.352
G0 X107.851 Y97.834
G0 X108.489 Y98.523
G0 X108.912 Y99.314
G0 X108.863 Y100.042
G11
G0 X108.943 Y100.033
G1 F1800 X109.109 Y100.199 E17.08591
G10
G0 F4500 X109.193 Y100.196
G0 X109.048 Y101.52
G0 X108.722 Y102.358
G0 X108.194 Y103.094
G0 X107.506 Y103.675
G0 X106.029 Y104.228
G0 X105.081 Y103.994
G11
G0 X105.064 Y104.074
G1 F1800 X105.213 Y104.224 E17.10589
G10
G0 F4500 X105.209 Y104.306
G0 X104.248 Y104.032
G0 X103.447 Y103.612
G0 X102.777 Y103.011
G0 X102.275 Y102.22
G11
G0 X102.212 Y101.717
G1 F1800 X102.024 Y101.529 E17.13102
G10
G0 F4500 X101.946 Y101.549
G0 X102.503 Y102.655
G0 X103.098 Y103.336
G0 X103.83 Y103.846
G11
G0 X104.419 Y103.924
G1 F1800 X104.619 Y104.124 E17.15775
G0 F4500 X103.806 Y103.806
G1 F1800 X103.371 Y103.371 E17.21588
G0 F4500 X102.828 Y102.828
G1 F1800 X102.348 Y102.348 E17.28003
G10
G0 F4500 X102.277 Y102.387
G0 X102.034 Y101.613
G11
G0 X102.067 Y101.077
G1 F1800 X101.919 Y100.929 E17.29981
G0 F4500 X102.041 Y100.556
G1 F1800 X101.916 Y100.431 E17.31651
G0 F4500 X102.088 Y100.108
G1 F1800 X101.967 Y99.987 E17.33268
G0 F4500 X102.169 Y99.694
G1 F1800 X102.06 Y99.586 E17.34718
G0 F4500 X102.297 Y99.327
G1 F1800 X102.19 Y99.22 E17.36148
G0 F4500 X102.456 Y98.992
G1 F1800 X102.354 Y98.889 E17.37518
G0 F4500 X102.638 Y98.678
G1 F1800 X102.544 Y98.584 E17.38775
G0 F4500 X102.758 Y98.304
G1 F1800 X102.857 Y98.402 E17.40091
G0 F4500 X103.086 Y98.137
G1 F1800 X102.995 Y98.045 E17.41314
G0 F4500 X103.255 Y97.811
G1 F1800 X103.355 Y97.91 E17.42644
G0 F4500 X103.632 Y97.692
G1 F1800 X103.546 Y97.606 E17.43793
G0 F4500 X103.859 Y97.424
G1 F1800 X103.959 Y97.524 E17.45129
G0 F4500 X104.199 Y97.269
G1 F1800 X104.297 Y97.367 E17.46439
G0 F4500 X104.568 Y97.143
G1 F1800 X104.68 Y97.255 E17.47936
G0 F4500 X104.975 Y97.056
G1 F1800 X105.099 Y97.179 E17.49586
G0 F4500 X105.431 Y97.016
G1 F1800 X105.559 Y97.145 E17.51304
G0 F4500 X105.551 Y97.226
G0 X107.361 Y98.698
G0 X108.918 Y100.579
G0 X108.998 Y100.583
G1 F1800 X109.131 Y100.716 E17.53081
G0 F4500 X108.975 Y101.056
G1 F1800 X109.09 Y101.17 E17.54611
G0 F4500 X108.89 Y101.465
G1 F1800 X109.005 Y101.58 E17.56148
G0 F4500 X108.779 Y101.849
G1 F1800 X108.885 Y101.955 E17.57565
G0 F4500 X108.623 Y102.188
G1 F1800 X108.728 Y102.293 E17.58968
G0 F4500 X108.445 Y102.505
G1 F1800 X108.543 Y102.603 E17.60278
G0 F4500 X108.333 Y102.888
G1 F1800 X108.24 Y102.795 E17.61521
G0 F4500 X108.006 Y103.056
G1 F1800 X108.101 Y103.151 E17.6279
G0 F4500 X107.847 Y103.393
G1 F1800 X107.752 Y103.297 E17.64067
G0 F4500 X107.464 Y103.504
G1 F1800 X107.564 Y103.604 E17.65403
G0 F4500 X107.25 Y103.785
G1 F1800 X107.163 Y103.698 E17.66566
G0 F4500 X106.925 Y103.955
G1 F1800 X106.816 Y103.847 E17.68016
G0 F4500 X106.558 Y104.083
G1 F1800 X106.456 Y103.981 E17.69379
G0 F4500 X106.158 Y104.178
G1 F1800 X106.041 Y104.061 E17.70943
G0 F4500 X105.715 Y104.23
G1 F1800 X105.583 Y104.098 E17.72707
G0 F4500 X105.583 Y103.766
G10
;MESH:Body1.stl(2)
G0 X107.677 Y103.368
G0 X109.189 Y104.985
G0 X113.953 Y104.462
G0 X115.457 Y102.844
G0 X117.265 Y103.504
;TYPE:WALL-INNER
G11
G1 F1800 X117.898 Y103.534 E17.78695
G1 X118.525 Y103.445 E17.8468
G1 X119.123 Y103.238 E17.9066
G1 X119.671 Y102.92 E17.96647
G1 X120.149 Y102.507 E18.02617
G1 X120.541 Y102.008 E18.08613
G1 X120.83 Y101.447 E18.14577
G1 X121.01 Y100.839 E18.20569
G1 X121.068 Y100.209 E18.26548
G1 X121.01 Y99.579 E18.32526
G1 X120.83 Y98.97 E18.38528
G1 X120.541 Y98.409 E18.44491
G1 X120.149 Y97.91 E18.50488
G1 X119.671 Y97.497 E18.56457
G1 X119.123 Y97.179 E18.62445
G1 X118.525 Y96.972 E18.68425
G1 X117.898 Y96.883 E18.74409
G1 X117.265 Y96.913 E18.80398
G1 X116.651 Y97.063 E18.86371
G1 X116.077 Y97.324 E18.9233
G1 X115.559 Y97.691 E18.98329
G1 X115.122 Y98.15 E19.04318
G1 X114.779 Y98.683 E19.10307
G1 X114.543 Y99.274 E19.16321
G1 X114.425 Y99.902 E19.2236
G1 X114.425 Y100.526 E19.28257
G1 X114.546 Y101.146 E19.34226
G1 X114.779 Y101.734 E19.40203
G1 X115.122 Y102.267 E19.46193
G1 X115.559 Y102.726 E19.52182
G1 X116.077 Y103.093 E19.58181
G1 X116.651 Y103.354 E19.6414
G1 X117.265 Y103.504 E19.70113
G0 F4500 X118.097 Y103.965
G1 F1800 X117.631 Y103.978 E19.74518
G1 X117.157 Y103.936 E19.79015
G1 X116.687 Y103.831 E19.83566
G1 X116.251 Y103.675 E19.87942
G1 X115.829 Y103.464 E19.924
G1 X115.444 Y103.203 E19.96796
G1 X115.089 Y102.894 E20.01243
G1 X114.777 Y102.545 E20.05667
G1 X114.506 Y102.154 E20.10163
G1 X114.293 Y101.745 E20.14521
G1 X114.132 Y101.314 E20.18869
G1 X114.021 Y100.848 E20.23395
G1 X113.97 Y100.39 E20.2775
G1 X113.979 Y99.924 E20.32155
G1 X114.043 Y99.45 E20.36675
G1 X114.166 Y98.995 E20.41129
