;FLAVOR:UltiGCode
;TIME:3419
;MATERIAL:7863
;MATERIAL2:0
;NOZZLE_DIAMETER:0.4
;MINX:65.7
;MINY:65.7
;MINZ:0.27
;MAXX:157.3
;MAXY:157.3
;MAXZ:10.07
;Generated with Cura_SteamEngine 4.12.1
M82 ;absolute extrusion mode
G0 F3000 Y50 ;avoid prime blob
G92 E0
G92 E0
G10
;LAYER_COUNT:50
;LAYER:0
M107
;MESH:Body1.stl
G0 F4500 X67.616 Y72.175 Z0.27
;TYPE:WALL-INNER
G11
G1 F1800 X67.862 Y72.494 E0.03807
G1 X68.078 Y72.775 E0.07156
G1 X67.723 Y72.775 E0.09008
G1 X66.725 Y72.775 E0.18439
G1 X66.725 Y70.557 E0.394
G1 X66.789 Y69.841 E0.46193
G1 X66.957 Y69.209 E0.52373
G1 X67.235 Y68.616 E0.58562
G1 X67.618 Y68.07 E0.64864
G1 X68.08 Y67.61 E0.71025
G1 X68.62 Y67.232 E0.77254
G1 X69.209 Y66.957 E0.83397
G1 X69.84 Y66.789 E0.89568
G1 X70.563 Y66.725 E0.96427
G1 X72.775 Y66.725 E1.1733
G1 X72.775 Y67.725 E1.2678
G1 X72.775 Y68.078 E1.30116
G1 X72.495 Y67.864 E1.31951
G1 X72.158 Y67.607 E1.35956
G1 X71.363 Y67.278 E1.44087
G1 X70.5 Y67.164 E1.52313
G1 X69.635 Y67.278 E1.60558
G1 X68.825 Y67.616 E1.68852
G1 X68.14 Y68.144 E1.77025
G1 X67.607 Y68.842 E1.85325
G1 X67.278 Y69.637 E1.93455
G1 X67.164 Y70.5 E2.01682
G1 X67.278 Y71.365 E2.09927
G1 X67.616 Y72.175 E2.18221
G0 F4500 X70.222 Y73.444
G0 X71.153 Y73.447
G0 X72.328 Y101.103
G0 X72.955 Y103.561
G0 X74.317 Y105.739
G1 F1800 X75.05 Y105.836 E2.25208
G1 X75.783 Y105.739 E2.32195
G1 X76.467 Y105.457 E2.39187
G1 X77.056 Y105.006 E2.46197
G1 X77.507 Y104.417 E2.53208
G1 X77.789 Y103.733 E2.60199
G1 X77.886 Y103 E2.67186
G1 X77.789 Y102.267 E2.74174
G1 X77.507 Y101.583 E2.81165
G1 X77.056 Y100.994 E2.88176
G1 X76.467 Y100.543 E2.95186
G1 X75.783 Y100.261 E3.02178
G1 X75.05 Y100.164 E3.09165
G1 X74.317 Y100.261 E3.16152
G1 X73.633 Y100.543 E3.23144
G1 X73.044 Y100.994 E3.30154
G1 X72.593 Y101.583 E3.37164
G1 X72.311 Y102.267 E3.44156
G1 X72.214 Y103 E3.51143
G1 X72.311 Y103.733 E3.5813
G1 X72.593 Y104.417 E3.65122
G1 X73.044 Y105.006 E3.72132
G1 X73.633 Y105.457 E3.79143
G1 X74.317 Y105.739 E3.86134
G0 F4500 X72.328 Y104.897
G0 X72.328 Y116.103
G0 X72.955 Y118.561
G0 X74.317 Y120.739
G1 F1800 X75.05 Y120.836 E3.93122
G1 X75.783 Y120.739 E4.00109
G1 X76.467 Y120.457 E4.071
G1 X77.056 Y120.006 E4.14111
G1 X77.507 Y119.417 E4.21121
G1 X77.789 Y118.733 E4.28113
G1 X77.886 Y118 E4.351
G1 X77.789 Y117.267 E4.42087
G1 X77.507 Y116.583 E4.49079
G1 X77.056 Y115.994 E4.56089
G1 X76.467 Y115.543 E4.63099
G1 X75.783 Y115.261 E4.70091
G1 X75.05 Y115.164 E4.77078
G1 X74.317 Y115.261 E4.84066
G1 X73.633 Y115.543 E4.91057
G1 X73.044 Y115.994 E4.98068
G1 X72.593 Y116.583 E5.05078
G1 X72.311 Y117.267 E5.12069
G1 X72.214 Y118 E5.19057
G1 X72.311 Y118.733 E5.26044
G1 X72.593 Y119.417 E5.33036
G1 X73.044 Y120.006 E5.40046
G1 X73.633 Y120.457 E5.47056
G1 X74.317 Y120.739 E5.54048
G0 F4500 X72.328 Y119.897
G0 X72.328 Y131.103
G0 X72.955 Y133.561
G0 X74.317 Y135.739
G1 F1800 X75.05 Y135.836 E5.61035
G1 X75.783 Y135.739 E5.68022
G1 X76.467 Y135.457 E5.75014
G1 X77.056 Y135.006 E5.82024
G1 X77.507 Y134.417 E5.89035
G1 X77.789 Y133.733 E5.96026
G1 X77.886 Y133 E6.03013
G1 X77.789 Y132.267 E6.10001
G1 X77.507 Y131.583 E6.16992
G1 X77.056 Y130.994 E6.24003
G1 X76.467 Y130.543 E6.31013
G1 X75.783 Y130.261 E6.38005
G1 X75.05 Y130.164 E6.44992
G1 X74.317 Y130.261 E6.51979
G1 X73.633 Y130.543 E6.58971
G1 X73.044 Y130.994 E6.65981
G1 X72.593 Y131.583 E6.72991
G1 X72.311 Y132.267 E6.79983
G1 X72.214 Y133 E6.8697
G1 X72.311 Y133.733 E6.93957
G1 X72.593 Y134.417 E7.00949
G1 X73.044 Y135.006 E7.07959
G1 X73.633 Y135.457 E7.1497
G1 X74.317 Y135.739 E7.21961
G0 F4500 X77.772 Y134.897
G0 X78.942 Y145.873
G0 X79.63 Y146.158
G0 X86.775 Y140.667
G0 X87.275 Y142.725
G1 F1800 X90.12 Y142.725 E7.48847
G1 X90.542 Y142.725 E7.52835
G1 X90.244 Y143.023 E7.54975
G1 X82.093 Y151.175 E8.63914
G1 X73.53 Y151.175 E9.44834
G1 X73.384 Y150.825 E9.48418
G1 X72.856 Y150.14 E9.56591
G1 X72.158 Y149.607 E9.64891
G1 X71.825 Y149.469 E9.68297
G1 X71.825 Y73.53 E16.8592
G1 X72.175 Y73.384 E16.89504
G1 X72.86 Y72.856 E16.97677
G1 X73.393 Y72.158 E17.05977
G1 X73.531 Y71.825 E17.09383
G1 X82.093 Y71.825 E17.90294
G1 X90.244 Y79.977 E18.99233
G1 X90.542 Y80.275 E19.03216
G1 X90.12 Y80.275 E19.05363
G1 X87.275 Y80.275 E19.32248
G1 X87.275 Y83.12 E19.59134
G1 X87.275 Y83.542 E19.63122
G1 X86.977 Y83.244 E19.65262
G1 X79.787 Y76.055 E20.61345
G1 X78.275 Y76.681 E20.76809
G1 X78.275 Y146.319 E27.34888
G1 X79.787 Y146.945 E27.50353
G1 X86.977 Y139.756 E28.46436
G1 X87.275 Y139.458 E28.50418
G1 X87.275 Y139.88 E28.52566
G1 X87.275 Y142.725 E28.79451
G0 F4500 X89.333 Y143.225
G0 X81.893 Y150.696
G0 X73.447 Y151.847
G0 X72.175 Y155.384
G1 F1800 X72.494 Y155.138 E28.83258
G1 X72.775 Y154.922 E28.86607
G1 X72.775 Y155.277 E28.88459
G1 X72.775 Y156.274 E28.97881
G1 X70.552 Y156.274 E29.18888
G1 X69.84 Y156.211 E29.25643
G1 X69.209 Y156.043 E29.31814
G1 X68.616 Y155.765 E29.38003
G1 X68.07 Y155.382 E29.44305
G1 X67.61 Y154.92 E29.50466
G1 X67.232 Y154.38 E29.56695
G1 X66.957 Y153.791 E29.62838
G1 X66.789 Y153.159 E29.69018
G1 X66.725 Y152.443 E29.75811
G1 X66.725 Y150.225 E29.96771
G1 X67.725 Y150.225 E30.06221
G1 X68.078 Y150.225 E30.09557
G1 X67.864 Y150.505 E30.11393
G1 X67.607 Y150.842 E30.15398
G1 X67.278 Y151.637 E30.23528
G1 X67.164 Y152.5 E30.31754
G1 X67.278 Y153.365 E30.39999
G1 X67.616 Y154.175 E30.48294
G1 X68.144 Y154.86 E30.56467
G1 X68.842 Y155.393 E30.64766
G1 X69.637 Y155.722 E30.72897
G1 X70.5 Y155.836 E30.81123
G1 X71.365 Y155.722 E30.89368
G1 X72.175 Y155.384 E30.97662
G0 F4500 X73.444 Y152.785
G0 X73.447 Y151.847
G0 X82.368 Y151.839
G0 X91.267 Y142.939
G0 X87.947 Y142.053
G0 X87.947 Y80.947
G0 X142.053 Y80.947
G0 X142.725 Y142.725
G1 F1800 X142.725 Y139.88 E31.24547
G1 X142.725 Y139.458 E31.28535
G1 X143.023 Y139.756 E31.30675
G1 X149.992 Y146.725 E32.23811
G1 X151.175 Y146.725 E32.34991
G1 X151.175 Y149.47 E32.60931
G1 X150.825 Y149.616 E32.64515
G1 X150.14 Y150.144 E32.72688
G1 X149.607 Y150.842 E32.80987
G1 X149.469 Y151.175 E32.84393
G1 X146.725 Y151.175 E33.10324
G1 X146.725 Y149.992 E33.21503
G1 X139.756 Y143.023 E34.14639
G1 X139.458 Y142.725 E34.18622
G1 X139.88 Y142.725 E34.2077
G1 X142.725 Y142.725 E34.47655
G0 F4500 X143.225 Y140.667
G0 X150.688 Y147.212
G0 X151.847 Y149.553
G0 X155.384 Y150.825
G1 F1800 X155.138 Y150.506 E34.51462
G1 X154.922 Y150.225 E34.54811
G1 X155.277 Y150.225 E34.56663
G1 X156.274 Y150.225 E34.66085
G1 X156.274 Y152.454 E34.87149
G1 X156.211 Y153.159 E34.93838
G1 X156.043 Y153.791 E35.00017
G1 X155.765 Y154.384 E35.06206
G1 X155.382 Y154.93 E35.12509
G1 X154.92 Y155.39 E35.1867
G1 X154.38 Y155.768 E35.24899
G1 X153.791 Y156.043 E35.31042
G1 X153.16 Y156.211 E35.37213
G1 X152.437 Y156.275 E35.44072
G1 X150.225 Y156.275 E35.64975
G1 X150.225 Y155.275 E35.74425
G1 X150.225 Y154.922 E35.77761
G1 X150.505 Y155.136 E35.79596
G1 X150.842 Y155.393 E35.83601
G1 X151.637 Y155.722 E35.91732
G1 X152.5 Y155.836 E35.99958
G1 X153.365 Y155.722 E36.08203
G1 X154.175 Y155.384 E36.16497
G1 X154.86 Y154.856 E36.2467
G1 X155.393 Y154.158 E36.3297
G1 X155.722 Y153.363 E36.411
G1 X155.836 Y152.5 E36.49327
G1 X155.722 Y151.635 E36.57571
G1 X155.384 Y150.825 E36.65866
G0 F4500 X152.785 Y149.555
G0 X151.847 Y149.553
G0 X150.267 Y146.061
G0 X142.939 Y138.733
G0 X142.725 Y80.275
G1 F1800 X139.88 Y80.275 E36.92751
G1 X139.458 Y80.275 E36.96739
G1 X139.756 Y79.977 E36.98879
G1 X146.725 Y73.008 E37.92015
G1 X146.725 Y71.825 E38.03194
G1 X149.47 Y71.825 E38.29135
G1 X149.616 Y72.175 E38.32718
G1 X150.144 Y72.86 E38.40891
G1 X150.842 Y73.393 E38.49191
G1 X151.175 Y73.531 E38.52597
G1 X151.175 Y76.275 E38.78528
G1 X149.992 Y76.275 E38.89707
G1 X143.023 Y83.244 E39.82843
G1 X142.725 Y83.542 E39.86826
G1 X142.725 Y83.12 E39.88973
G1 X142.725 Y80.275 E40.15859
G0 F4500 X140.667 Y79.775
G0 X147.212 Y72.312
G0 X149.553 Y71.153
G0 X150.825 Y67.616
G1 F1800 X150.506 Y67.862 E40.19665
G1 X150.225 Y68.078 E40.23015
G1 X150.225 Y67.723 E40.24867
G1 X150.225 Y66.726 E40.34288
G1 X152.448 Y66.726 E40.55296
G1 X153.16 Y66.789 E40.62051
G1 X153.791 Y66.957 E40.68221
G1 X154.384 Y67.235 E40.7441
G1 X154.93 Y67.618 E40.80713
G1 X155.39 Y68.08 E40.86874
G1 X155.768 Y68.62 E40.93103
G1 X156.043 Y69.209 E40.99246
G1 X156.211 Y69.841 E41.05425
G1 X156.275 Y70.557 E41.12219
G1 X156.275 Y72.775 E41.33179
G1 X155.275 Y72.775 E41.42629
G1 X154.922 Y72.775 E41.45965
G1 X155.136 Y72.495 E41.478
G1 X155.393 Y72.158 E41.51805
G1 X155.722 Y71.363 E41.59936
G1 X155.836 Y70.5 E41.68162
G1 X155.722 Y69.635 E41.76407
G1 X155.384 Y68.825 E41.84701
G1 X154.856 Y68.14 E41.92874
G1 X154.158 Y67.607 E42.01173
G1 X153.363 Y67.278 E42.09304
G1 X152.5 Y67.164 E42.1753
G1 X151.635 Y67.278 E42.25775
G1 X150.825 Y67.616 E42.34069
G0 F4500 X149.875 Y66.525
G1 F1800 X146.375 Y66.525 E42.67144
G1 X146.375 Y66.375 E42.68562
G1 X149.875 Y66.375 E42.82737
G1 X152.468 Y66.376 E43.07241
G1 X153.217 Y66.442 E43.14346
G1 X153.911 Y66.627 E43.21134
G1 X154.559 Y66.93 E43.27894
G1 X155.158 Y67.351 E43.34812
G1 X155.661 Y67.856 E43.41548
G1 X156.071 Y68.442 E43.48307
G1 X156.373 Y69.089 E43.55054
G1 X156.558 Y69.783 E43.61841
G1 X156.625 Y70.537 E43.68995
G1 X156.625 Y73.125 E43.93451
G1 X156.625 Y76.625 E44.26526
G1 X156.475 Y76.625 E44.27944
G1 X156.475 Y73.125 E44.42119
G1 X153.888 Y73.125 E44.66566
G1 X153.998 Y73.079 E44.67693
G1 X154.61 Y72.607 E44.74996
G1 X155.087 Y71.982 E44.82426
G1 X155.381 Y71.272 E44.89688
G1 X155.483 Y70.5 E44.97047
G1 X155.381 Y69.727 E45.04415
G1 X155.079 Y69.002 E45.11837
G1 X154.607 Y68.39 E45.19141
G1 X153.982 Y67.913 E45.2657
G1 X153.272 Y67.619 E45.33832
G1 X152.5 Y67.517 E45.41191
G1 X151.727 Y67.619 E45.48559
G1 X151.002 Y67.921 E45.55981
G1 X150.39 Y68.393 E45.63285
G1 X149.913 Y69.018 E45.70715
G1 X149.875 Y69.11 E45.71655
G1 X149.875 Y68.649 E45.74666
G1 X149.875 Y66.525 E45.94738
G0 F4500 X149.83 Y70.5
G0 X150.693 Y73.853
G0 X150.699 Y76.935
G0 X142.939 Y84.267
G0 X142.939 Y138.733
G0 X150.267 Y146.061
G0 X151.847 Y149.553
G0 X156.475 Y149.875
G1 F1800 X156.475 Y146.375 E46.27813
G1 X156.625 Y146.375 E46.2923
G1 X156.625 Y149.875 E46.43405
G1 X156.624 Y152.474 E46.67966
G1 X156.558 Y153.217 E46.75015
G1 X156.373 Y153.911 E46.81802
G1 X156.07 Y154.559 E46.88562
G1 X155.649 Y155.158 E46.95481
G1 X155.144 Y155.661 E47.02217
G1 X154.558 Y156.071 E47.08975
G1 X153.911 Y156.373 E47.15723
G1 X153.217 Y156.558 E47.2251
G1 X152.457 Y156.625 E47.2972
G1 X149.875 Y156.625 E47.5412
G1 X146.375 Y156.625 E47.87195
G1 X146.375 Y156.475 E47.88612
G1 X149.875 Y156.475 E48.02787
G1 X149.875 Y153.888 E48.27234
G1 X149.921 Y153.998 E48.28361
G1 X150.393 Y154.61 E48.35665
G1 X151.018 Y155.087 E48.43095
G1 X151.728 Y155.381 E48.50356
G1 X152.5 Y155.483 E48.57715
G1 X153.273 Y155.381 E48.65083
G1 X153.998 Y155.079 E48.72505
G1 X154.61 Y154.607 E48.79809
G1 X155.087 Y153.982 E48.87239
G1 X155.381 Y153.272 E48.94501
G1 X155.483 Y152.5 E49.0186
G1 X155.381 Y151.727 E49.09228
G1 X155.079 Y151.002 E49.1665
G1 X154.607 Y150.39 E49.23953
G1 X153.982 Y149.913 E49.31383
G1 X153.89 Y149.875 E49.32324
G1 X154.351 Y149.875 E49.35334
G1 X156.475 Y149.875 E49.55406
G0 F4500 X149.8 Y149.806
G0 X149.147 Y150.693
G0 X147.212 Y150.688
G0 X138.733 Y142.939
G0 X142.053 Y142.053
G0 X142.053 Y80.947
G0 X87.947 Y80.947
G0 X87.625 Y142.375
G1 F1800 X91.137 Y142.375 E49.88595
G1 X98.625 Y142.375 E50.59356
G1 X98.625 Y142.625 E50.61719
G1 X91.137 Y142.625 E51.12263
G1 X82.238 Y151.525 E52.31199
G1 X73.297 Y151.525 E53.15691
G1 X73.079 Y151.002 E53.21046
G1 X72.607 Y150.39 E53.28349
G1 X71.982 Y149.913 E53.35779
G1 X71.475 Y149.703 E53.40965
G1 X71.475 Y73.297 E60.63002
G1 X71.998 Y73.079 E60.68356
G1 X72.61 Y72.607 E60.7566
G1 X73.087 Y71.982 E60.8309
G1 X73.297 Y71.475 E60.88275
G1 X82.238 Y71.475 E61.72768
G1 X91.137 Y80.375 E62.91704
G1 X138.863 Y80.375 E67.42714
G1 X146.375 Y72.863 E68.43107
G1 X146.375 Y71.475 E68.56224
G1 X149.703 Y71.475 E68.87673
G1 X149.921 Y71.998 E68.93028
G1 X150.393 Y72.61 E69.00331
G1 X151.018 Y73.087 E69.07761
G1 X151.525 Y73.297 E69.12947
G1 X151.525 Y76.625 E69.44397
G1 X150.137 Y76.625 E69.57513
G1 X142.625 Y84.137 E70.57906
G1 X142.625 Y138.863 E75.75067
G1 X150.137 Y146.375 E76.7546
G1 X151.525 Y146.375 E76.88576
G1 X151.525 Y149.703 E77.20026
G1 X151.002 Y149.921 E77.2538
G1 X150.39 Y150.393 E77.32684
G1 X149.913 Y151.018 E77.40114
G1 X149.703 Y151.525 E77.453
G1 X146.375 Y151.525 E77.76749
G1 X146.375 Y150.137 E77.89866
G1 X138.863 Y142.625 E78.90259
G1 X124.375 Y142.625 E80.2717
G1 X124.375 Y142.375 E80.29533
G1 X138.863 Y142.375 E81.27327
G1 X142.375 Y142.375 E81.60515
G1 X142.375 Y138.863 E81.93704
G1 X142.375 Y84.137 E85.63104
G1 X142.375 Y80.625 E85.96292
G1 X138.863 Y80.625 E86.29481
G1 X91.137 Y80.625 E89.51631
G1 X87.625 Y80.625 E89.8482
G1 X87.625 Y84.137 E90.18008
G1 X87.625 Y138.863 E95.35169
G1 X87.625 Y142.375 E95.68357
G0 F4500 X86.775 Y140.667
G0 X79.63 Y146.158
G0 X78.625 Y146.085
G1 F1800 X79.705 Y146.532 E95.79403
G1 X87.375 Y138.863 E96.819
G1 X87.375 Y84.137 E100.51301
G1 X79.705 Y76.468 E101.53799
G1 X78.625 Y76.915 E101.64844
G1 X78.625 Y146.085 E108.18501
G0 F4500 X77.772 Y134.897
G0 X74.408 Y135.398
G1 F1800 X75.05 Y135.483 E108.24621
G1 X75.692 Y135.398 E108.3074
G1 X76.291 Y135.151 E108.36863
G1 X76.806 Y134.756 E108.42997
G1 X77.201 Y134.241 E108.4913
G1 X77.448 Y133.642 E108.55253
G1 X77.533 Y133 E108.61373
G1 X77.448 Y132.358 E108.67493
G1 X77.201 Y131.759 E108.73616
G1 X76.806 Y131.244 E108.79749
G1 X76.291 Y130.849 E108.85883
G1 X75.692 Y130.602 E108.92005
G1 X75.05 Y130.517 E108.98125
G1 X74.408 Y130.602 E109.04245
G1 X73.809 Y130.849 E109.10368
G1 X73.294 Y131.244 E109.16501
G1 X72.899 Y131.759 E109.22635
G1 X72.652 Y132.358 E109.28758
G1 X72.567 Y133 E109.34878
G1 X72.652 Y133.642 E109.40997
G1 X72.899 Y134.241 E109.4712
G1 X73.294 Y134.756 E109.53254
G1 X73.809 Y135.151 E109.59387
G1 X74.408 Y135.398 E109.6551
G0 F4500 X73.516 Y134.534
G0 X72.955 Y133.561
G0 X72.328 Y131.103
G0 X72.328 Y119.897
G0 X74.408 Y120.398
G1 F1800 X75.05 Y120.483 E109.7163
G1 X75.692 Y120.398 E109.7775
G1 X76.291 Y120.151 E109.83873
G1 X76.806 Y119.756 E109.90006
G1 X77.201 Y119.241 E109.96139
G1 X77.448 Y118.642 E110.02262
G1 X77.533 Y118 E110.08382
G1 X77.448 Y117.358 E110.14502
G1 X77.201 Y116.759 E110.20625
G1 X76.806 Y116.244 E110.26758
G1 X76.291 Y115.849 E110.32892
G1 X75.692 Y115.602 E110.39015
G1 X75.05 Y115.517 E110.45135
G1 X74.408 Y115.602 E110.51254
G1 X73.809 Y115.849 E110.57377
G1 X73.294 Y116.244 E110.63511
G1 X72.899 Y116.759 E110.69644
G1 X72.652 Y117.358 E110.75767
G1 X72.567 Y118 E110.81887
G1 X72.652 Y118.642 E110.88007
G1 X72.899 Y119.241 E110.9413
G1 X73.294 Y119.756 E111.00263
G1 X73.809 Y120.151 E111.06396
G1 X74.408 Y120.398 E111.12519
G0 F4500 X73.516 Y119.534
G0 X72.955 Y118.561
G0 X72.328 Y116.103
G0 X72.328 Y104.897
G0 X74.408 Y105.398
G1 F1800 X75.05 Y105.483 E111.18639
G1 X75.692 Y105.398 E111.24759
G1 X76.291 Y105.151 E111.30882
G1 X76.806 Y104.756 E111.37015
G1 X77.201 Y104.241 E111.43149
G1 X77.448 Y103.642 E111.49272
G1 X77.533 Y103 E111.55392
G1 X77.448 Y102.358 E111.61511
G1 X77.201 Y101.759 E111.67634
G1 X76.806 Y101.244 E111.73768
G1 X76.291 Y100.849 E111.79901
G1 X75.692 Y100.602 E111.86024
G1 X75.05 Y100.517 E111.92144
G1 X74.408 Y100.602 E111.98264
G1 X73.809 Y100.849 E112.04387
G1 X73.294 Y101.244 E112.1052
G1 X72.899 Y101.759 E112.16653
G1 X72.652 Y102.358 E112.22776
G1 X72.567 Y103 E112.28896
G1 X72.652 Y103.642 E112.35016
G1 X72.899 Y104.241 E112.41139
G1 X73.294 Y104.756 E112.47272
G1 X73.809 Y105.151 E112.53406
G1 X74.408 Y105.398 E112.59529
G0 F4500 X73.516 Y104.534
G0 X72.955 Y103.561
G0 X72.328 Y101.103
G0 X71.153 Y73.447
G0 X66.525 Y73.125
G1 F1800 X66.525 Y76.625 E112.92604
G1 X66.375 Y76.625 E112.94021
G1 X66.375 Y73.125 E113.08196
G1 X66.375 Y70.537 E113.32653
G1 X66.442 Y69.783 E113.39806
G1 X66.627 Y69.089 E113.46594
G1 X66.93 Y68.441 E113.53353
G1 X67.351 Y67.842 E113.60272
G1 X67.856 Y67.339 E113.67008
G1 X68.442 Y66.929 E113.73766
G1 X69.089 Y66.627 E113.80514
G1 X69.783 Y66.442 E113.87301
G1 X70.543 Y66.375 E113.94511
G1 X73.125 Y66.375 E114.18911
