;FLAVOR:UltiGCode
;TIME:931
;MATERIAL:2193
;MATERIAL2:0
;NOZZLE_DIAMETER:0.4
;MINX:65.7
;MINY:102.45
;MINZ:0.27
;MAXX:157.3
;MAXY:120.8
;MAXZ:3.27
;Generated with Cura_SteamEngine 4.12.1
M82 ;absolute extrusion mode
G0 F3000 Y50 ;avoid prime blob
G92 E0
G92 E0
G10
;LAYER_COUNT:16
;LAYER:0
M107
;MESH:Body1.stl
G0 F4500 X72.644 Y118.554 Z0.27
;TYPE:WALL-INNER
G11
G1 F1800 X72.775 Y118.415 E0.01805
G1 X72.775 Y119.775 E0.14657
G1 X70.531 Y119.775 E0.35863
G1 X69.971 Y119.735 E0.41168
G1 X69.435 Y119.618 E0.46353
G1 X68.939 Y119.434 E0.51352
G1 X68.456 Y119.169 E0.56558
G1 X68.022 Y118.845 E0.61676
G1 X67.655 Y118.478 E0.66581
G1 X67.331 Y118.044 E0.71699
G1 X67.066 Y117.561 E0.76905
G1 X66.882 Y117.065 E0.81905
G1 X66.765 Y116.529 E0.87089
G1 X66.725 Y115.969 E0.92395
G1 X66.725 Y113.725 E1.13601
G1 X68.068 Y113.725 E1.26292
G1 X67.614 Y114.331 E1.33447
G1 X67.305 Y115.044 E1.40791
G1 X67.172 Y115.807 E1.4811
G1 X67.218 Y116.579 E1.55418
G1 X67.439 Y117.32 E1.62725
G1 X67.825 Y117.989 E1.70024
G1 X68.356 Y118.554 E1.77352
G1 X69.005 Y118.98 E1.84688
G1 X69.733 Y119.243 E1.92003
G1 X70.5 Y119.332 E1.99299
G1 X71.267 Y119.243 E2.06596
G1 X71.995 Y118.98 E2.13911
G1 X72.644 Y118.554 E2.21247
G0 F4500 X73.622 Y115.522
G0 X100.748 Y114.55
G1 F1800 X100.965 Y114.675 E2.23614
G1 X73.535 Y114.675 E4.82827
G1 X73.386 Y114.331 E4.8637
G1 X72.923 Y113.713 E4.93667
G1 X72.333 Y113.216 E5.00957
G1 X71.825 Y112.961 E5.06329
G1 X71.825 Y105.223 E5.79453
G1 X71.825 Y104.558 E5.85737
G1 X71.836 Y104.587 E5.8603
G1 X72.261 Y105.367 E5.91703
G1 X72.793 Y106.078 E6.00094
G1 X73.422 Y106.707 E6.085
G1 X74.133 Y107.239 E6.16892
G1 X74.913 Y107.664 E6.25286
G1 X75.744 Y107.976 E6.33674
G1 X76.612 Y108.163 E6.42065
G1 X77.455 Y108.225 E6.50053
G1 X100.965 Y108.225 E8.72223
G1 X100.748 Y108.35 E8.74589
G1 X100.154 Y108.884 E8.82137
G1 X99.681 Y109.534 E8.89734
G1 X99.355 Y110.266 E8.97306
G1 X99.189 Y111.049 E9.0487
G1 X99.189 Y111.851 E9.12449
G1 X99.355 Y112.634 E9.20013
G1 X99.681 Y113.366 E9.27585
G1 X100.154 Y114.016 E9.35182
G1 X100.748 Y114.55 E9.4273
G0 F4500 X115.748 Y114.55
G1 F1800 X115.965 Y114.675 E9.45097
G1 X105.035 Y114.675 E10.48385
G1 X105.252 Y114.55 E10.50752
G1 X105.846 Y114.016 E10.583
G1 X106.319 Y113.366 E10.65896
G1 X106.645 Y112.634 E10.73469
G1 X106.811 Y111.851 E10.81033
G1 X106.811 Y111.049 E10.88612
G1 X106.645 Y110.266 E10.96175
G1 X106.319 Y109.534 E11.03748
G1 X105.846 Y108.884 E11.11345
G1 X105.252 Y108.35 E11.18893
G1 X105.035 Y108.225 E11.21259
G1 X115.965 Y108.225 E12.24548
G1 X115.748 Y108.35 E12.26914
G1 X115.154 Y108.884 E12.34462
G1 X114.681 Y109.534 E12.42059
G1 X114.355 Y110.266 E12.49631
G1 X114.189 Y111.049 E12.57195
G1 X114.189 Y111.851 E12.64774
G1 X114.355 Y112.634 E12.72338
G1 X114.681 Y113.366 E12.7991
G1 X115.154 Y114.016 E12.87507
G1 X115.748 Y114.55 E12.95055
G0 F4500 X130.748 Y114.55
G1 F1800 X130.965 Y114.675 E12.97422
G1 X120.035 Y114.675 E14.0071
G1 X120.252 Y114.55 E14.03077
G1 X120.846 Y114.016 E14.10625
G1 X121.319 Y113.366 E14.18222
G1 X121.645 Y112.634 E14.25794
G1 X121.811 Y111.851 E14.33358
G1 X121.811 Y111.049 E14.40937
G1 X121.645 Y110.266 E14.48501
G1 X121.319 Y109.534 E14.56073
G1 X120.846 Y108.884 E14.6367
G1 X120.252 Y108.35 E14.71218
G1 X120.035 Y108.225 E14.73584
G1 X130.965 Y108.225 E15.76873
G1 X130.748 Y108.35 E15.79239
G1 X130.154 Y108.884 E15.86787
G1 X129.681 Y109.534 E15.94384
G1 X129.355 Y110.266 E16.01957
G1 X129.189 Y111.049 E16.0952
G1 X129.189 Y111.851 E16.17099
G1 X129.355 Y112.634 E16.24663
G1 X129.681 Y113.366 E16.32235
G1 X130.154 Y114.016 E16.39832
G1 X130.748 Y114.55 E16.4738
G0 F4500 X149.614 Y114.331
G1 F1800 X149.465 Y114.675 E16.50923
G1 X135.035 Y114.675 E17.87286
G1 X135.252 Y114.55 E17.89653
G1 X135.846 Y114.016 E17.97201
G1 X136.319 Y113.366 E18.04798
G1 X136.645 Y112.634 E18.1237
G1 X136.811 Y111.851 E18.19934
G1 X136.811 Y111.049 E18.27513
G1 X136.645 Y110.266 E18.35077
G1 X136.319 Y109.534 E18.42649
G1 X135.846 Y108.884 E18.50246
G1 X135.252 Y108.35 E18.57794
G1 X135.035 Y108.225 E18.6016
G1 X145.545 Y108.225 E19.5948
G1 X146.388 Y108.163 E19.67468
G1 X147.256 Y107.976 E19.75859
G1 X148.087 Y107.664 E19.84247
G1 X148.867 Y107.239 E19.92641
G1 X149.578 Y106.707 E20.01033
G1 X150.207 Y106.078 E20.09439
G1 X150.739 Y105.367 E20.1783
G1 X151.164 Y104.587 E20.26225
G1 X151.175 Y104.558 E20.26518
G1 X151.175 Y105.223 E20.30081
G1 X151.175 Y112.961 E21.03205
G1 X150.667 Y113.216 E21.08577
G1 X150.077 Y113.713 E21.15867
G1 X149.614 Y114.331 E21.23164
G0 F4500 X151.65 Y113.658
G0 X152.791 Y113.525
G0 X155.386 Y114.331
G1 F1800 X154.932 Y113.725 E21.3032
G1 X156.275 Y113.725 E21.43011
G1 X156.275 Y115.969 E21.64217
G1 X156.235 Y116.529 E21.69522
G1 X156.118 Y117.065 E21.74707
G1 X155.934 Y117.561 E21.79706
G1 X155.669 Y118.044 E21.84912
G1 X155.345 Y118.478 E21.9003
G1 X154.978 Y118.845 E21.94935
G1 X154.544 Y119.169 E22.00053
G1 X154.061 Y119.434 E22.05259
G1 X153.565 Y119.618 E22.10259
G1 X153.029 Y119.735 E22.15443
G1 X152.469 Y119.775 E22.20749
G1 X150.225 Y119.775 E22.41954
G1 X150.225 Y118.415 E22.54806
G1 X150.356 Y118.554 E22.56611
G1 X151.005 Y118.98 E22.63948
G1 X151.733 Y119.243 E22.71262
G1 X152.5 Y119.332 E22.78559
G1 X153.267 Y119.243 E22.85856
G1 X153.995 Y118.98 E22.93171
G1 X154.644 Y118.554 E23.00507
G1 X155.175 Y117.989 E23.07834
G1 X155.561 Y117.32 E23.15133
G1 X155.782 Y116.579 E23.2244
G1 X155.828 Y115.807 E23.29749
G1 X155.695 Y115.044 E23.37068
G1 X155.386 Y114.331 E23.44411
G0 F4500 X156.475 Y113.375
G1 F1800 X156.475 Y109.875 E23.77486
G1 X156.625 Y109.875 E23.78904
G1 X156.625 Y113.375 E23.93079
G1 X156.625 Y115.98 E24.17696
G1 X156.582 Y116.581 E24.2339
G1 X156.455 Y117.163 E24.29019
G1 X156.253 Y117.707 E24.34503
G1 X155.963 Y118.235 E24.40196
G1 X155.614 Y118.703 E24.45713
G1 X155.203 Y119.114 E24.51205
G1 X154.735 Y119.463 E24.56722
G1 X154.207 Y119.753 E24.62415
G1 X153.663 Y119.955 E24.67899
G1 X153.081 Y120.082 E24.73528
G1 X152.48 Y120.125 E24.79222
G1 X149.875 Y120.125 E25.03839
G1 X146.375 Y120.125 E25.36914
G1 X146.375 Y119.975 E25.38332
G1 X149.875 Y119.975 E25.52507
G1 X149.875 Y117.779 E25.73259
G1 X149.875 Y117.375 E25.77077
G1 X150.108 Y117.779 E25.78834
G1 X150.583 Y118.284 E25.85386
G1 X151.163 Y118.665 E25.91943
G1 X151.814 Y118.9 E25.98484
G1 X152.5 Y118.98 E26.0501
G1 X153.186 Y118.9 E26.11537
G1 X153.837 Y118.665 E26.18078
G1 X154.417 Y118.284 E26.24635
G1 X154.892 Y117.779 E26.31187
G1 X155.237 Y117.181 E26.37711
G1 X155.435 Y116.518 E26.4425
G1 X155.476 Y115.827 E26.50791
G1 X155.357 Y115.145 E26.57334
G1 X155.081 Y114.508 E26.63894
G1 X154.667 Y113.955 E26.70422
G1 X154.139 Y113.51 E26.76947
G1 X153.869 Y113.375 E26.798
G1 X156.475 Y113.375 E27.04427
G0 F4500 X152.209 Y113.525
G0 X149.919 Y114.508
G1 F1800 X149.695 Y115.025 E27.09751
G1 X134.287 Y115.025 E28.55357
G1 X133.724 Y115.025 E28.60677
G1 X133 Y115.025 E28.67519
G1 X132.276 Y115.025 E28.74361
G1 X131.713 Y115.025 E28.79681
G1 X119.287 Y115.025 E29.97107
G1 X118.724 Y115.025 E30.02427
G1 X118 Y115.025 E30.09269
G1 X117.276 Y115.025 E30.16111
G1 X116.713 Y115.025 E30.21431
G1 X104.287 Y115.025 E31.38857
G1 X103.724 Y115.025 E31.44177
G1 X103 Y115.025 E31.51019
G1 X102.276 Y115.025 E31.57861
G1 X101.713 Y115.025 E31.63181
G1 X73.305 Y115.025 E34.31637
G1 X73.081 Y114.508 E34.36961
G1 X72.667 Y113.955 E34.43489
G1 X72.139 Y113.51 E34.50015
G1 X71.52 Y113.2 E34.56557
G1 X71.475 Y113.189 E34.56995
G1 X71.475 Y104.261 E35.41364
G1 X71.92 Y103.816 E35.47311
G1 X72.155 Y104.441 E35.53621
G1 X72.556 Y105.177 E35.61542
G1 X73.058 Y105.848 E35.69461
G1 X73.652 Y106.442 E35.77399
G1 X74.323 Y106.944 E35.85318
G1 X75.059 Y107.345 E35.93239
G1 X75.843 Y107.639 E36.01152
G1 X76.662 Y107.816 E36.0907
G1 X77.468 Y107.875 E36.16707
G1 X101.713 Y107.875 E38.45822
G1 X102.276 Y107.875 E38.51142
G1 X103 Y107.875 E38.57984
G1 X103.724 Y107.875 E38.64826
G1 X104.287 Y107.875 E38.70146
G1 X116.713 Y107.875 E39.87572
G1 X117.276 Y107.875 E39.92892
G1 X118 Y107.875 E39.99734
G1 X118.724 Y107.875 E40.06576
G1 X119.287 Y107.875 E40.11896
G1 X131.713 Y107.875 E41.29322
G1 X132.276 Y107.875 E41.34642
G1 X133 Y107.875 E41.41484
G1 X133.724 Y107.875 E41.48326
G1 X134.287 Y107.875 E41.53646
G1 X145.532 Y107.875 E42.59912
G1 X146.338 Y107.816 E42.67549
G1 X147.157 Y107.639 E42.75467
G1 X147.941 Y107.345 E42.8338
G1 X148.677 Y106.944 E42.913
G1 X149.348 Y106.442 E42.99219
G1 X149.942 Y105.848 E43.07158
G1 X150.444 Y105.177 E43.15077
G1 X150.845 Y104.441 E43.22997
G1 X151.08 Y103.816 E43.29307
G1 X151.525 Y104.261 E43.35254
G1 X151.525 Y113.189 E44.19624
G1 X151.48 Y113.2 E44.20062
G1 X150.861 Y113.51 E44.26604
G1 X150.333 Y113.955 E44.33129
G1 X149.919 Y114.508 E44.39657
G0 F4500 X132.276 Y114.854
G1 F1800 X133 Y114.93 E44.42286
G1 X133.724 Y114.854 E44.44915
G1 X134.417 Y114.628 E44.50539
G1 X135.045 Y114.265 E44.57394
G1 X135.585 Y113.78 E44.64253
G1 X136.014 Y113.19 E44.71146
G1 X136.31 Y112.525 E44.78025
G1 X136.461 Y111.814 E44.84894
G1 X136.461 Y111.086 E44.91773
G1 X136.31 Y110.375 E44.98642
G1 X136.014 Y109.71 E45.05521
G1 X135.585 Y109.12 E45.12414
G1 X135.045 Y108.635 E45.19274
G1 X134.417 Y108.272 E45.26128
G1 X133.724 Y108.046 E45.31752
G1 X133 Y107.97 E45.34381
G1 X132.276 Y108.046 E45.3701
G1 X131.583 Y108.272 E45.42634
G1 X130.955 Y108.635 E45.49489
G1 X130.415 Y109.12 E45.56348
G1 X129.986 Y109.71 E45.63241
G1 X129.69 Y110.375 E45.7012
G1 X129.539 Y111.086 E45.76989
G1 X129.539 Y111.814 E45.83869
G1 X129.69 Y112.525 E45.90737
G1 X129.986 Y113.19 E45.97616
G1 X130.415 Y113.78 E46.0451
G1 X130.955 Y114.265 E46.11369
G1 X131.583 Y114.628 E46.18223
G1 X132.276 Y114.854 E46.23847
G0 F4500 X117.276 Y114.854
G1 F1800 X118 Y114.93 E46.26476
G1 X118.724 Y114.854 E46.29105
G1 X119.417 Y114.628 E46.34729
G1 X120.045 Y114.265 E46.41584
G1 X120.585 Y113.78 E46.48443
G1 X121.014 Y113.19 E46.55337
G1 X121.31 Y112.525 E46.62215
G1 X121.461 Y111.814 E46.69084
G1 X121.461 Y111.086 E46.75964
G1 X121.31 Y110.375 E46.82833
G1 X121.014 Y109.71 E46.89711
G1 X120.585 Y109.12 E46.96605
G1 X120.045 Y108.635 E47.03464
G1 X119.417 Y108.272 E47.10319
G1 X118.724 Y108.046 E47.15943
G1 X118 Y107.97 E47.18571
G1 X117.276 Y108.046 E47.212
G1 X116.583 Y108.272 E47.26824
G1 X115.955 Y108.635 E47.33679
G1 X115.415 Y109.12 E47.40538
G1 X114.986 Y109.71 E47.47432
G1 X114.69 Y110.375 E47.5431
G1 X114.539 Y111.086 E47.61179
G1 X114.539 Y111.814 E47.68059
G1 X114.69 Y112.525 E47.74928
G1 X114.986 Y113.19 E47.81806
G1 X115.415 Y113.78 E47.887
G1 X115.955 Y114.265 E47.95559
G1 X116.583 Y114.628 E48.02414
G1 X117.276 Y114.854 E48.08038
G0 F4500 X102.276 Y114.854
G1 F1800 X103 Y114.93 E48.10667
G1 X103.724 Y114.854 E48.13295
G1 X104.417 Y114.628 E48.1892
G1 X105.045 Y114.265 E48.25774
G1 X105.585 Y113.78 E48.32633
G1 X106.014 Y113.19 E48.39527
G1 X106.31 Y112.525 E48.46406
G1 X106.461 Y111.814 E48.53274
G1 X106.461 Y111.086 E48.60154
G1 X106.31 Y110.375 E48.67023
G1 X106.014 Y109.71 E48.73901
G1 X105.585 Y109.12 E48.80795
G1 X105.045 Y108.635 E48.87654
G1 X104.417 Y108.272 E48.94509
G1 X103.724 Y108.046 E49.00133
G1 X103 Y107.97 E49.02762
G1 X102.276 Y108.046 E49.05391
G1 X101.583 Y108.272 E49.11015
G1 X100.955 Y108.635 E49.17869
G1 X100.415 Y109.12 E49.24728
G1 X99.986 Y109.71 E49.31622
G1 X99.69 Y110.375 E49.38501
G1 X99.539 Y111.086 E49.4537
G1 X99.539 Y111.814 E49.52249
G1 X99.69 Y112.525 E49.59118
G1 X99.986 Y113.19 E49.65997
G1 X100.415 Y113.78 E49.7289
G1 X100.955 Y114.265 E49.79749
G1 X101.583 Y114.628 E49.86604
G1 X102.276 Y114.854 E49.92228
G0 F4500 X73.622 Y115.522
G0 X73.125 Y119.975
G1 F1800 X76.625 Y119.975 E50.25303
G1 X76.625 Y120.125 E50.26721
G1 X73.125 Y120.125 E50.40896
G1 X70.52 Y120.125 E50.65513
G1 X69.919 Y120.082 E50.71207
G1 X69.337 Y119.955 E50.76836
G1 X68.793 Y119.753 E50.8232
G1 X68.265 Y119.463 E50.88013
G1 X67.797 Y119.114 E50.93529
G1 X67.386 Y118.703 E50.99022
G1 X67.037 Y118.235 E51.04539
G1 X66.747 Y117.707 E51.10232
G1 X66.545 Y117.163 E51.15716
G1 X66.418 Y116.581 E51.21345
G1 X66.375 Y115.98 E51.27039
G1 X66.375 Y113.375 E51.51656
G1 X66.375 Y109.875 E51.84731
G1 X66.525 Y109.875 E51.86149
G1 X66.525 Y113.375 E52.00324
G1 X69.131 Y113.375 E52.2495
G1 X68.861 Y113.51 E52.27803
G1 X68.333 Y113.955 E52.34328
G1 X67.919 Y114.508 E52.40856
G1 X67.643 Y115.145 E52.47417
G1 X67.524 Y115.827 E52.53959
G1 X67.565 Y116.518 E52.605
G1 X67.763 Y117.181 E52.67039
G1 X68.108 Y117.779 E52.73563
G1 X68.583 Y118.284 E52.80115
G1 X69.163 Y118.665 E52.86673
G1 X69.814 Y118.9 E52.93213
G1 X70.5 Y118.98 E52.9974
G1 X71.186 Y118.9 E53.06267
G1 X71.837 Y118.665 E53.12807
G1 X72.417 Y118.284 E53.19365
G1 X72.892 Y117.779 E53.25916
G1 X73.125 Y117.375 E53.30324
G1 X73.125 Y117.779 E53.31494
G1 X73.125 Y119.975 E53.52246
G0 F4500 X73.475 Y119.625
G1 F1800 X76.975 Y119.625 E53.85321
G1 X76.975 Y120.475 E53.93353
G1 X70.509 Y120.475 E54.54457
G1 X69.869 Y120.429 E54.60521
G1 X69.238 Y120.292 E54.66622
G1 X68.644 Y120.071 E54.72612
G1 X68.076 Y119.759 E54.78736
G1 X67.572 Y119.383 E54.84678
G1 X67.117 Y118.928 E54.90759
G1 X66.741 Y118.424 E54.96701
G1 X66.429 Y117.856 E55.02825
G1 X66.208 Y117.262 E55.08814
G1 X66.071 Y116.631 E55.14916
G1 X66.025 Y115.991 E55.2098
G1 X66.025 Y109.525 E55.82083
G1 X66.875 Y109.525 E55.90116
G1 X66.875 Y113.025 E56.23191
G1 X71.125 Y113.025 E56.63353
G1 X71.125 Y104.117 E57.47534
G1 X72.106 Y103.136 E57.60644
G1 X72.198 Y103.558 E57.64726
G1 X72.474 Y104.295 E57.72163
G1 X72.851 Y104.987 E57.7961
G1 X73.323 Y105.618 E57.87056
G1 X73.882 Y106.177 E57.94527
G1 X74.513 Y106.649 E58.01974
G1 X75.205 Y107.026 E58.09421
G1 X75.942 Y107.302 E58.16858
G1 X76.712 Y107.469 E58.24303
G1 X77.481 Y107.525 E58.31589
G1 X145.519 Y107.525 E64.74549
G1 X146.288 Y107.469 E64.81835
G1 X147.058 Y107.302 E64.89281
G1 X147.795 Y107.026 E64.96718
G1 X148.487 Y106.649 E65.04164
G1 X149.118 Y106.177 E65.11611
G1 X149.677 Y105.618 E65.19082
G1 X150.149 Y104.987 E65.26528
G1 X150.526 Y104.295 E65.33975
G1 X150.802 Y103.558 E65.41412
G1 X150.894 Y103.136 E65.45494
G1 X151.875 Y104.117 E65.58604
G1 X151.875 Y113.025 E66.42785
G1 X156.125 Y113.025 E66.82947
G1 X156.125 Y109.525 E67.16022
G1 X156.975 Y109.525 E67.24055
G1 X156.975 Y115.991 E67.85158
G1 X156.929 Y116.631 E67.91222
G1 X156.792 Y117.262 E67.97324
G1 X156.571 Y117.856 E68.03313
G1 X156.259 Y118.424 E68.09437
G1 X155.883 Y118.928 E68.15379
G1 X155.428 Y119.383 E68.2146
G1 X154.924 Y119.759 E68.27402
G1 X154.356 Y120.071 E68.33526
G1 X153.762 Y120.292 E68.39516
G1 X153.131 Y120.429 E68.45618
G1 X152.491 Y120.475 E68.51681
G1 X146.025 Y120.475 E69.12785
G1 X146.025 Y119.625 E69.20817
G1 X149.525 Y119.625 E69.53892
G1 X149.525 Y115.375 E69.94055
G1 X73.475 Y115.375 E77.12727
G1 X73.475 Y119.625 E77.5289
G0 F4500 X69.895 Y118.557
G1 F1800 X70.5 Y118.628 E77.58646
G1 X71.105 Y118.557 E77.64403
G1 X71.679 Y118.35 E77.70169
G1 X72.19 Y118.014 E77.75948
G1 X72.609 Y117.569 E77.81724
G1 X72.913 Y117.042 E77.87474
G1 X73.088 Y116.457 E77.93244
G1 X73.124 Y115.847 E77.99019
G1 X73.019 Y115.246 E78.04784
G1 X72.776 Y114.685 E78.10561
G1 X72.411 Y114.197 E78.1632
G1 X71.945 Y113.804 E78.22081
G1 X71.399 Y113.531 E78.2785
G1 X70.806 Y113.389 E78.33612
G1 X70.194 Y113.389 E78.39395
G1 X69.601 Y113.531 E78.45158
G1 X69.055 Y113.804 E78.50926
G1 X68.589 Y114.197 E78.56687
G1 X68.224 Y114.685 E78.62446
G1 X67.981 Y115.246 E78.68223
G1 X67.876 Y115.847 E78.73989
G1 X67.912 Y116.457 E78.79763
G1 X68.087 Y117.042 E78.85534
G1 X68.391 Y117.569 E78.91283
G1 X68.81 Y118.014 E78.97059
G1 X69.321 Y118.35 E79.02838
G1 X69.895 Y118.557 E79.08604
G0 F4500 X73.61 Y118.092
G0 X73.622 Y115.522
G0 X102.349 Y114.51
G1 F1800 X103 Y114.578 E79.1479
G1 X103.651 Y114.51 E79.20975
G1 X104.273 Y114.307 E79.27158
G1 X104.838 Y113.98 E79.33327
G1 X105.324 Y113.544 E79.39497
G1 X105.709 Y113.014 E79.45688
G1 X105.975 Y112.416 E79.51873
G1 X106.111 Y111.777 E79.58047
G1 X106.111 Y111.123 E79.64227
G1 X105.975 Y110.484 E79.70401
G1 X105.709 Y109.886 E79.76586
G1 X105.324 Y109.356 E79.82776
G1 X104.838 Y108.92 E79.88946
G1 X104.273 Y108.593 E79.95115
