;FLAVOR:UltiGCode
;TIME:679
;MATERIAL:1406
;MATERIAL2:0
;NOZZLE_DIAMETER:0.4
;MINX:93.333
;MINY:92.7
;MINZ:0.27
;MAXX:129.667
;MAXY:131.695
;MAXZ:10.07
;Generated with Cura_SteamEngine 4.12.1
M82 ;absolute extrusion mode
G0 F3000 Y50 ;avoid prime blob
G92 E0
G92 E0
G10
;LAYER_COUNT:50
;LAYER:0
M107
G0 F4500 X95.57 Y127.305 Z0.27
;TYPE:SUPPORT
G11
G1 F1800 X100.418 Y127.305 E0.45814
G1 X100.421 Y127.65 E0.49074
G1 X95.57 Y127.65 E0.94916
G1 X95.57 Y127.305 E0.98176
G10
G0 F4500 X93.841 Y127.833
G0 X93.333 Y128.341
G0 X93.333 Y130.659
G0 X93.841 Y131.167
G0 X95.572 Y131.35
G11
G1 F1800 X100.417 Y131.35 E1.43961
G1 X100.414 Y131.695 E1.47222
G1 X95.573 Y131.695 E1.92969
G1 X95.572 Y131.35 E1.9623
G0 F4500 X122.572 Y131.35
G1 F1800 X127.417 Y131.35 E2.42015
G1 X127.414 Y131.695 E2.45275
G1 X122.573 Y131.695 E2.91023
G1 X122.572 Y131.35 E2.94283
G10
G0 F4500 X129.159 Y131.167
G0 X129.667 Y130.659
G0 X129.667 Y128.341
G0 X129.159 Y127.833
G0 X122.57 Y127.65
G11
G1 F1800 X122.57 Y127.305 E2.97543
G1 X127.418 Y127.305 E3.43357
G1 X127.421 Y127.65 E3.46617
G1 X122.57 Y127.65 E3.92459
G10
;MESH:Body1.stl
G0 F4500 X122.57 Y129.045
G0 X115.275 Y129.275
;TYPE:WALL-INNER
G11
G1 F1800 X107.725 Y129.275 E4.63807
G1 X107.725 Y93.725 E7.99754
G1 X115.275 Y93.725 E8.71102
G1 X115.275 Y129.275 E12.07049
G0 F4500 X115.625 Y129.375
G1 F1800 X128.125 Y129.375 E13.25174
G1 X128.125 Y129.625 E13.27537
G1 X115.625 Y129.625 E14.11912
G1 X107.375 Y129.625 E14.89874
G1 X94.875 Y129.625 E16.07999
G1 X94.875 Y129.375 E16.10362
G1 X107.375 Y129.375 E16.94737
G1 X107.375 Y93.375 E20.34937
G1 X115.625 Y93.375 E21.12899
G1 X115.625 Y129.375 E24.53099
G0 F4500 X115.975 Y129.025
G1 F1800 X128.475 Y129.025 E25.71224
G1 X128.475 Y129.975 E25.80202
G1 X94.525 Y129.975 E29.01029
G1 X94.525 Y129.025 E29.10007
G1 X107.025 Y129.025 E30.28132
G1 X107.025 Y93.025 E33.68332
G1 X115.975 Y93.025 E34.52909
G1 X115.975 Y129.025 E37.93109
G0 F4500 X116.3 Y128.7
;TYPE:WALL-OUTER
G1 F1800 X128.8 Y128.7 E39.11234
G1 X128.8 Y130.3 E39.26354
G1 X94.2 Y130.3 E42.53324
G1 X94.2 Y128.7 E42.68444
G1 X106.7 Y128.7 E43.86569
G1 X106.7 Y92.7 E47.26769
G1 X116.3 Y92.7 E48.17489
G1 X116.3 Y128.7 E51.57689
G0 F4500 X116.5 Y128.7
G0 X116.5 Y129.125
G0 X114.935 Y128.935
;TYPE:SKIN
G1 F1800 X108.065 Y128.935 E52.22611
G1 X108.065 Y94.065 E55.52132
G1 X114.935 Y94.065 E56.17054
G1 X114.935 Y128.935 E59.46575
G0 F4500 X114.86 Y94.484
G0 X114.778 Y94.484
G1 F1800 X114.515 Y94.221 E59.5009
G0 F4500 X114.02 Y94.221
G1 F1800 X114.778 Y94.979 E59.6022
G0 F4500 X114.778 Y95.474
G1 F1800 X113.525 Y94.221 E59.76965
G0 F4500 X113.031 Y94.221
G1 F1800 X114.778 Y95.969 E60.0032
G0 F4500 X114.778 Y96.464
G1 F1800 X112.536 Y94.221 E60.30289
G0 F4500 X112.041 Y94.221
G1 F1800 X114.778 Y96.959 E60.66874
G0 F4500 X114.778 Y97.454
G1 F1800 X111.546 Y94.221 E61.10074
G0 F4500 X111.051 Y94.221
G1 F1800 X114.778 Y97.949 E61.5989
G0 F4500 X114.778 Y98.444
G1 F1800 X110.556 Y94.221 E62.1632
G0 F4500 X110.061 Y94.221
G1 F1800 X114.778 Y98.939 E62.79367
G0 F4500 X114.778 Y99.434
G1 F1800 X109.566 Y94.221 E63.49028
G0 F4500 X109.071 Y94.221
G1 F1800 X114.778 Y99.929 E64.25305
G0 F4500 X114.778 Y100.424
G1 F1800 X108.576 Y94.221 E65.08197
G0 F4500 X108.221 Y94.361
G1 F1800 X114.778 Y100.918 E65.95827
G0 F4500 X114.778 Y101.413
G1 F1800 X108.221 Y94.856 E66.83457
G0 F4500 X108.221 Y95.351
G1 F1800 X114.778 Y101.908 E67.71087
G0 F4500 X114.778 Y102.403
G1 F1800 X108.221 Y95.846 E68.58716
G0 F4500 X108.221 Y96.341
G1 F1800 X114.778 Y102.898 E69.46346
G0 F4500 X114.778 Y103.393
G1 F1800 X108.221 Y96.836 E70.33976
G0 F4500 X108.221 Y97.331
G1 F1800 X114.778 Y103.888 E71.21606
G0 F4500 X114.778 Y104.383
G1 F1800 X108.221 Y97.826 E72.09236
G0 F4500 X108.221 Y98.321
G1 F1800 X114.778 Y104.878 E72.96866
G0 F4500 X114.778 Y105.373
G1 F1800 X108.221 Y98.816 E73.84495
G0 F4500 X108.221 Y99.311
G1 F1800 X114.778 Y105.868 E74.72125
G0 F4500 X114.778 Y106.363
G1 F1800 X108.221 Y99.806 E75.59755
G0 F4500 X108.221 Y100.301
G1 F1800 X114.778 Y106.858 E76.47385
G0 F4500 X114.778 Y107.353
G1 F1800 X108.221 Y100.796 E77.35015
G0 F4500 X108.221 Y101.291
G1 F1800 X114.778 Y107.848 E78.22645
G0 F4500 X114.778 Y108.343
G1 F1800 X108.221 Y101.786 E79.10274
G0 F4500 X108.221 Y102.281
G1 F1800 X114.778 Y108.838 E79.97904
G0 F4500 X114.778 Y109.333
G1 F1800 X108.221 Y102.776 E80.85534
G0 F4500 X108.221 Y103.271
G1 F1800 X114.778 Y109.828 E81.73164
G0 F4500 X114.778 Y110.323
G1 F1800 X108.221 Y103.766 E82.60794
G0 F4500 X108.221 Y104.261
G1 F1800 X114.778 Y110.818 E83.48424
G0 F4500 X114.778 Y111.313
G1 F1800 X108.221 Y104.756 E84.36053
G0 F4500 X108.221 Y105.251
G1 F1800 X114.778 Y111.808 E85.23683
G0 F4500 X114.778 Y112.303
G1 F1800 X108.221 Y105.746 E86.11313
G0 F4500 X108.221 Y106.241
G1 F1800 X114.778 Y112.798 E86.98943
G0 F4500 X114.778 Y113.293
G1 F1800 X108.221 Y106.736 E87.86573
G0 F4500 X108.221 Y107.231
G1 F1800 X114.778 Y113.788 E88.74203
G0 F4500 X114.778 Y114.283
G1 F1800 X108.221 Y107.726 E89.61832
G0 F4500 X108.221 Y108.221
G1 F1800 X114.778 Y114.778 E90.49462
G0 F4500 X114.778 Y115.273
G1 F1800 X108.221 Y108.716 E91.37092
G0 F4500 X108.221 Y109.211
G1 F1800 X114.778 Y115.768 E92.24722
G0 F4500 X114.778 Y116.263
G1 F1800 X108.221 Y109.706 E93.12352
G0 F4500 X108.221 Y110.201
G1 F1800 X114.778 Y116.758 E93.99982
G0 F4500 X114.778 Y117.253
G1 F1800 X108.221 Y110.696 E94.87611
G0 F4500 X108.221 Y111.191
G1 F1800 X114.778 Y117.748 E95.75241
G0 F4500 X114.778 Y118.243
G1 F1800 X108.221 Y111.686 E96.62871
G0 F4500 X108.221 Y112.181
G1 F1800 X114.778 Y118.738 E97.50501
G0 F4500 X114.778 Y119.233
G1 F1800 X108.221 Y112.676 E98.38131
G0 F4500 X108.221 Y113.171
G1 F1800 X114.778 Y119.728 E99.25761
G0 F4500 X114.778 Y120.223
G1 F1800 X108.221 Y113.666 E100.13391
G0 F4500 X108.221 Y114.16
G1 F1800 X114.778 Y120.717 E101.0102
G0 F4500 X114.778 Y121.212
G1 F1800 X108.221 Y114.655 E101.8865
G0 F4500 X108.221 Y115.15
G1 F1800 X114.778 Y121.707 E102.7628
G0 F4500 X114.778 Y122.202
G1 F1800 X108.221 Y115.645 E103.6391
G0 F4500 X108.221 Y116.14
G1 F1800 X114.778 Y122.697 E104.5154
G0 F4500 X114.778 Y123.192
G1 F1800 X108.221 Y116.635 E105.3917
G0 F4500 X108.221 Y117.13
G1 F1800 X114.778 Y123.687 E106.26799
G0 F4500 X114.778 Y124.182
G1 F1800 X108.221 Y117.625 E107.14429
G0 F4500 X108.221 Y118.12
G1 F1800 X114.778 Y124.677 E108.02059
G0 F4500 X114.778 Y125.172
G1 F1800 X108.221 Y118.615 E108.89689
G0 F4500 X108.221 Y119.11
G1 F1800 X114.778 Y125.667 E109.77319
G0 F4500 X114.778 Y126.162
G1 F1800 X108.221 Y119.605 E110.64949
G0 F4500 X108.221 Y120.1
G1 F1800 X114.778 Y126.657 E111.52578
G0 F4500 X114.778 Y127.152
G1 F1800 X108.221 Y120.595 E112.40208
G0 F4500 X108.221 Y121.09
G1 F1800 X114.778 Y127.647 E113.27838
G0 F4500 X114.778 Y128.142
G1 F1800 X108.221 Y121.585 E114.15468
G0 F4500 X108.221 Y122.08
G1 F1800 X114.778 Y128.637 E115.03098
G0 F4500 X114.423 Y128.777
G1 F1800 X108.221 Y122.575 E115.85983
G0 F4500 X108.221 Y123.07
G1 F1800 X113.928 Y128.777 E116.62253
G0 F4500 X113.433 Y128.777
G1 F1800 X108.221 Y123.565 E117.31908
G0 F4500 X108.221 Y124.06
G1 F1800 X112.938 Y128.777 E117.94948
G0 F4500 X112.443 Y128.777
G1 F1800 X108.221 Y124.555 E118.51372
G0 F4500 X108.221 Y125.05
G1 F1800 X111.948 Y128.777 E119.01181
G0 F4500 X111.453 Y128.777
G1 F1800 X108.221 Y125.545 E119.44374
G0 F4500 X108.221 Y126.04
G1 F1800 X110.958 Y128.777 E119.80952
G0 F4500 X110.463 Y128.777
G1 F1800 X108.221 Y126.535 E120.10915
G0 F4500 X108.221 Y127.03
G1 F1800 X109.968 Y128.777 E120.34263
G0 F4500 X109.473 Y128.777
G1 F1800 X108.221 Y127.525 E120.50995
G0 F4500 X108.221 Y128.02
G1 F1800 X108.978 Y128.777 E120.61111
G0 F4500 X108.483 Y128.777
G1 F1800 X108.221 Y128.515 E120.64613
G0 F4500 X107.89 Y128.515
G10
;MESH:NONMESH
G0 F600 X107.89 Y128.515 Z0.47
G0 F4500 X107.045 Y127.65
G0 X105.829 Y127.65
G0 X95.653 Y127.65
;TIME_ELAPSED:51.876685
;LAYER:1
M106 S255
;TYPE:SUPPORT
G11
G1 F2100 X97.986 Y127.65 E120.80944
G1 X97.986 Y127.305 E120.83359
G1 X100.319 Y127.305 E120.9969
G1 X100.319 Y127.65 E121.02105
G1 X100.421 Y127.65 E121.02819
G1 X100.418 Y127.305 E121.05234
G1 X100.319 Y127.305 E121.05927
G0 F6750 X95.653 Y127.65
G1 F2100 X95.57 Y127.65 E121.06508
G1 X95.57 Y127.305 E121.08923
G1 X95.653 Y127.305 E121.09504
G1 X95.653 Y127.65 E121.11919
G10
G0 F6750 X93.841 Y127.833
G0 X93.333 Y128.341
G0 X93.333 Y130.659
G0 X95.653 Y131.695
G11
G1 F2100 X97.986 Y131.695 E121.2825
G1 X97.986 Y131.35 E121.30665
G1 X100.319 Y131.35 E121.46996
G1 X100.319 Y131.695 E121.49411
G1 X100.414 Y131.695 E121.50076
G1 X100.417 Y131.35 E121.52491
G1 X100.319 Y131.35 E121.53177
G0 F6750 X95.653 Y131.695
G1 F2100 X95.573 Y131.695 E121.53737
G1 X95.572 Y131.35 E121.56152
G1 X95.653 Y131.35 E121.56719
G1 X95.653 Y131.695 E121.59134
G0 F6750 X123.649 Y131.695
G1 F2100 X122.573 Y131.695 E121.66666
G1 X122.572 Y131.35 E121.69081
G1 X123.649 Y131.35 E121.7662
G1 X123.649 Y131.695 E121.79035
G1 X125.982 Y131.695 E121.95366
G1 X125.982 Y131.35 E121.97781
G1 X127.417 Y131.35 E122.07826
G1 X127.414 Y131.695 E122.10241
G1 X125.982 Y131.695 E122.20265
G10
G0 F6750 X129.159 Y131.167
G0 X129.667 Y130.659
G0 X129.667 Y128.341
G0 X129.159 Y127.833
G0 X125.982 Y127.65
G11
G1 F2100 X127.421 Y127.65 E122.30338
G1 X127.418 Y127.305 E122.32753
G1 X125.982 Y127.305 E122.42805
G1 X125.982 Y127.65 E122.4522
G1 X123.649 Y127.65 E122.61551
G1 X123.649 Y127.305 E122.63966
G1 X122.57 Y127.305 E122.71519
G1 X122.57 Y127.65 E122.73934
G1 X123.649 Y127.65 E122.81487
G10
;MESH:Body1.stl
G0 F6750 X123.649 Y129.045
G0 X115.275 Y129.275
;TYPE:WALL-INNER
G11
G1 F2400 X107.725 Y129.275 E123.34337
G1 X107.725 Y93.725 E125.83187
G1 X115.275 Y93.725 E126.36037
G1 X115.275 Y129.275 E128.84887
G0 F6750 X115.625 Y129.375
G1 F2400 X128.125 Y129.375 E129.72387
G1 X128.125 Y129.625 E129.74137
G1 X115.625 Y129.625 E130.36637
G1 X107.375 Y129.625 E130.94387
G1 X94.875 Y129.625 E131.81887
G1 X94.875 Y129.375 E131.83637
G1 X107.375 Y129.375 E132.46137
G1 X107.375 Y93.375 E134.98137
G1 X115.625 Y93.375 E135.55887
G1 X115.625 Y129.375 E138.07887
G0 F6750 X115.975 Y129.025
G1 F2400 X128.475 Y129.025 E138.95387
G1 X128.475 Y129.975 E139.02037
G1 X94.525 Y129.975 E141.39687
G1 X94.525 Y129.025 E141.46337
G1 X107.025 Y129.025 E142.33837
G1 X107.025 Y93.025 E144.85837
G1 X115.975 Y93.025 E145.48487
G1 X115.975 Y129.025 E148.00487
G0 F6750 X116.3 Y128.7
;TYPE:WALL-OUTER
G1 F2100 X128.8 Y128.7 E148.87987
G1 X128.8 Y130.3 E148.99187
G1 X94.2 Y130.3 E151.41387
G1 X94.2 Y128.7 E151.52587
G1 X106.7 Y128.7 E152.40087
G1 X106.7 Y92.7 E154.92087
G1 X116.3 Y92.7 E155.59287
G1 X116.3 Y128.7 E158.11287
G0 F6750 X116.5 Y128.7
G0 X116.5 Y129.125
G0 X114.935 Y128.935
;TYPE:SKIN
G1 F1800 X108.065 Y128.935 E158.59377
G1 X108.065 Y94.065 E161.03467
G1 X114.935 Y94.065 E161.51557
G1 X114.935 Y128.935 E163.95647
G0 F6750 X108.221 Y94.717
G1 F1800 X108.717 Y94.221 E164.00557
G0 F6750 X109.212 Y94.221
G1 F1800 X108.221 Y95.212 E164.10368
G0 F6750 X108.221 Y95.707
G1 F1800 X109.707 Y94.221 E164.25078
G0 F6750 X110.202 Y94.221
G1 F1800 X108.221 Y96.202 E164.44689
G0 F6750 X108.221 Y96.697
G1 F1800 X110.697 Y94.221 E164.69201
G0 F6750 X111.192 Y94.221
G1 F1800 X108.221 Y97.192 E164.98612
G0 F6750 X108.221 Y97.687
G1 F1800 X111.687 Y94.221 E165.32924
G0 F6750 X112.182 Y94.221
G1 F1800 X108.221 Y98.182 E165.72135
G0 F6750 X108.221 Y98.677
G1 F1800 X112.677 Y94.221 E166.16248
G0 F6750 X113.172 Y94.221
G1 F1800 X108.221 Y99.172 E166.6526
G0 F6750 X108.221 Y99.667
G1 F1800 X113.667 Y94.221 E167.19173
G0 F6750 X114.162 Y94.221
G1 F1800 X108.221 Y100.162 E167.77986
G0 F6750 X108.221 Y100.657
G1 F1800 X114.657 Y94.221 E168.41699
G0 F6750 X114.777 Y94.596
G1 F1800 X108.221 Y101.152 E169.066
G0 F6750 X108.221 Y101.647
G1 F1800 X114.777 Y95.091 E169.71501
G0 F6750 X114.777 Y95.586
G1 F1800 X108.221 Y102.142 E170.36402
G0 F6750 X108.221 Y102.637
G1 F1800 X114.777 Y96.081 E171.01303
G0 F6750 X114.777 Y96.576
G1 F1800 X108.221 Y103.132 E171.66204
G0 F6750 X108.221 Y103.627
G1 F1800 X114.777 Y97.071 E172.31105
G0 F6750 X114.777 Y97.566
G1 F1800 X108.221 Y104.122 E172.96006
G0 F6750 X108.221 Y104.617
G1 F1800 X114.777 Y98.061 E173.60907
G0 F6750 X114.777 Y98.556
G1 F1800 X108.221 Y105.112 E174.25809
G0 F6750 X108.221 Y105.607
G1 F1800 X114.777 Y99.051 E174.9071
G0 F6750 X114.777 Y99.546
G1 F1800 X108.221 Y106.102 E175.55611
G0 F6750 X108.221 Y106.597
G1 F1800 X114.777 Y100.041 E176.20512
G0 F6750 X114.777 Y100.536
G1 F1800 X108.221 Y107.092 E176.85413
G0 F6750 X108.221 Y107.587
G1 F1800 X114.777 Y101.031 E177.50314
G0 F6750 X114.777 Y101.526
G1 F1800 X108.221 Y108.081 E178.1521
G0 F6750 X108.221 Y108.576
G1 F1800 X114.777 Y102.021 E178.80106
G0 F6750 X114.777 Y102.516
G1 F1800 X108.221 Y109.071 E179.45002
G0 F6750 X108.221 Y109.566
G1 F1800 X114.777 Y103.011 E180.09899
G0 F6750 X114.777 Y103.506
G1 F1800 X108.221 Y110.061 E180.74795
G0 F6750 X108.221 Y110.556
G1 F1800 X114.777 Y104.001 E181.39691
G0 F6750 X114.777 Y104.496
G1 F1800 X108.221 Y111.051 E182.04587
G0 F6750 X108.221 Y111.546
G1 F1800 X114.777 Y104.991 E182.69483
G0 F6750 X114.777 Y105.486
G1 F1800 X108.221 Y112.041 E183.34379
G0 F6750 X108.221 Y112.536
G1 F1800 X114.777 Y105.981 E183.99275
G0 F6750 X114.777 Y106.476
G1 F1800 X108.221 Y113.031 E184.64171
G0 F6750 X108.221 Y113.526
G1 F1800 X114.777 Y106.971 E185.29068
G0 F6750 X114.777 Y107.466
G1 F1800 X108.221 Y114.021 E185.93964
G0 F6750 X108.221 Y114.516
G1 F1800 X114.777 Y107.961 E186.5886
G0 F6750 X114.777 Y108.456
G1 F1800 X108.221 Y115.011 E187.23756
G0 F6750 X108.221 Y115.506
G1 F1800 X114.777 Y108.951 E187.88652
G0 F6750 X114.777 Y109.445
G1 F1800 X108.221 Y116.001 E188.53553
G0 F6750 X108.221 Y116.496
G1 F1800 X114.777 Y109.94 E189.18454
G0 F6750 X114.777 Y110.435
G1 F1800 X108.221 Y116.991 E189.83355
G0 F6750 X108.221 Y117.486
G1 F1800 X114.777 Y110.93 E190.48257
G0 F6750 X114.777 Y111.425
G1 F1800 X108.221 Y117.981 E191.13158
G0 F6750 X108.221 Y118.476
G1 F1800 X114.777 Y111.92 E191.78059
G0 F6750 X114.777 Y112.415
G1 F1800 X108.221 Y118.971 E192.4296
G0 F6750 X108.221 Y119.466
G1 F1800 X114.777 Y112.91 E193.07861
G0 F6750 X114.777 Y113.405
G1 F1800 X108.221 Y119.961 E193.72762
G0 F6750 X108.221 Y120.456
G1 F1800 X114.777 Y113.9 E194.37663
G0 F6750 X114.777 Y114.395
G1 F1800 X108.221 Y120.951 E195.02564
G0 F6750 X108.221 Y121.446
G1 F1800 X114.777 Y114.89 E195.67465
G0 F6750 X114.777 Y115.385
G1 F1800 X108.221 Y121.941 E196.32366
G0 F6750 X108.221 Y122.436
G1 F1800 X114.777 Y115.88 E196.97267
G0 F6750 X114.777 Y116.375
G1 F1800 X108.221 Y122.931 E197.62169
G0 F6750 X108.221 Y123.426
G1 F1800 X114.777 Y116.87 E198.2707
G0 F6750 X114.777 Y117.365
G1 F1800 X108.221 Y123.921 E198.91971
G0 F6750 X108.221 Y124.416
G1 F1800 X114.777 Y117.86 E199.56872
G0 F6750 X114.777 Y118.355
G1 F1800 X108.221 Y124.911 E200.21773
G0 F6750 X108.221 Y125.406
G1 F1800 X114.777 Y118.85 E200.86674
G0 F6750 X114.777 Y119.345
G1 F1800 X108.221 Y125.901 E201.51575
G0 F6750 X108.221 Y126.396
G1 F1800 X114.777 Y119.84 E202.16476
G0 F6750 X114.777 Y120.335
G1 F1800 X108.221 Y126.891 E202.81377
G0 F6750 X108.221 Y127.385
G1 F1800 X114.777 Y120.83 E203.46273
G0 F6750 X114.777 Y121.325
G1 F1800 X108.221 Y127.88 E204.1117
G0 F6750 X108.221 Y128.375
G1 F1800 X114.777 Y121.82 E204.76066
G0 F6750 X114.777 Y122.315
G1 F1800 X108.315 Y128.777 E205.40036
G0 F6750 X108.81 Y128.777
G1 F1800 X114.777 Y122.81 E205.99106
G0 F6750 X114.777 Y123.305
G1 F1800 X109.305 Y128.777 E206.53276
G0 F6750 X109.8 Y128.777
G1 F1800 X114.777 Y123.8 E207.02546
G0 F6750 X114.777 Y124.295
G1 F1800 X110.295 Y128.777 E207.46916
G0 F6750 X110.79 Y128.777
G1 F1800 X114.777 Y124.79 E207.86385
G0 F6750 X114.777 Y125.285
G1 F1800 X111.285 Y128.777 E208.20954
G0 F6750 X111.78 Y128.777
G1 F1800 X114.777 Y125.78 E208.50623
G0 F6750 X114.777 Y126.275
G1 F1800 X112.275 Y128.777 E208.75391
G0 F6750 X112.77 Y128.777
G1 F1800 X114.777 Y126.77 E208.9526
G0 F6750 X114.777 Y127.265
G1 F1800 X113.265 Y128.777 E209.10228
G0 F6750 X113.76 Y128.777
G1 F1800 X114.777 Y127.76 E209.20296
G0 F6750 X114.777 Y128.255
