;FLAVOR:UltiGCode
;TIME:247
;MATERIAL:538
;MATERIAL2:0
;NOZZLE_DIAMETER:0.4
;MINX:105.7
;MINY:105.7
;MINZ:0.27
;MAXX:125.361
;MAXY:125.361
;MAXZ:3.27
;Generated with Cura_SteamEngine 4.12.1
M82 ;absolute extrusion mode
G0 F3000 Y50 ;avoid prime blob
G92 E0
G92 E0
G10
;LAYER_COUNT:16
;LAYER:0
M107
;MESH:Body1.stl
G0 F4500 X107.774 Y112.414 Z0.27
;TYPE:WALL-INNER
G11
G1 F1800 X108.087 Y112.775 E0.04515
G1 X107.704 Y112.775 E0.06282
G1 X106.725 Y112.775 E0.15534
G1 X106.725 Y110.519 E0.36853
G1 X106.761 Y109.992 E0.41845
G1 X106.86 Y109.506 E0.46532
G1 X107.015 Y109.055 E0.51038
G1 X107.239 Y108.603 E0.55806
G1 X107.505 Y108.205 E0.60329
G1 X107.845 Y107.819 E0.6519
G1 X108.203 Y107.507 E0.69678
G1 X108.618 Y107.233 E0.74377
G1 X109.068 Y107.01 E0.79123
G1 X109.548 Y106.85 E0.83905
G1 X110.013 Y106.759 E0.88382
G1 X110.529 Y106.725 E0.93269
G1 X112.775 Y106.725 E1.14494
G1 X112.775 Y108.092 E1.27412
G1 X112.527 Y107.858 E1.30634
G1 X111.955 Y107.506 E1.36981
G1 X111.322 Y107.272 E1.43359
G1 X110.653 Y107.175 E1.49747
G1 X109.981 Y107.209 E1.56105
G1 X109.33 Y107.383 E1.62473
G1 X108.727 Y107.681 E1.68829
G1 X108.196 Y108.096 E1.75198
G1 X107.758 Y108.608 E1.81565
G1 X107.434 Y109.201 E1.87951
G1 X107.236 Y109.842 E1.94291
G1 X107.169 Y110.512 E2.00654
G1 X107.241 Y111.183 E2.07031
G1 X107.444 Y111.826 E2.13403
G1 X107.774 Y112.414 E2.19775
G0 F4500 X110.978 Y113.622
G0 X111.909 Y114.762
G1 F1800 X111.825 Y114.965 E2.21851
G1 X111.825 Y114.464 E2.26586
G1 X111.825 Y113.541 E2.35308
G1 X111.98 Y113.483 E2.36872
G1 X112.55 Y113.124 E2.43238
G1 X113.035 Y112.659 E2.49587
G1 X113.417 Y112.105 E2.55947
G1 X113.536 Y111.825 E2.58822
G1 X114.498 Y111.825 E2.67913
G1 X114.965 Y111.825 E2.72326
G1 X114.731 Y111.923 E2.74723
G1 X114.026 Y112.333 E2.81775
G1 X113.382 Y112.829 E2.89456
G1 X112.808 Y113.405 E2.97141
G1 X112.313 Y114.054 E3.04854
G1 X111.909 Y114.762 E3.11633
G0 F4500 X111.734 Y116.371
G1 F1800 X111.701 Y116.625 E3.14053
G1 X111.475 Y116.625 E3.16189
G1 X111.475 Y116.274 E3.19506
G1 X111.475 Y113.299 E3.47619
G1 X111.824 Y113.168 E3.51142
G1 X112.333 Y112.847 E3.56829
G1 X112.767 Y112.431 E3.6251
G1 X113.109 Y111.935 E3.68203
G1 X113.305 Y111.475 E3.72928
G1 X116.625 Y111.475 E4.04302
G1 X116.625 Y111.705 E4.06476
G1 X116.345 Y111.738 E4.0914
G1 X115.595 Y111.941 E4.16483
G1 X114.887 Y112.237 E4.23735
G1 X114.222 Y112.624 E4.31006
G1 X113.614 Y113.092 E4.38256
G1 X113.072 Y113.636 E4.45513
G1 X112.605 Y114.248 E4.52788
G1 X112.224 Y114.916 E4.60055
G1 X111.93 Y115.626 E4.67317
G1 X111.823 Y116.032 E4.71285
G1 X111.734 Y116.371 E4.7452
G0 F4500 X110.978 Y113.622
G0 X106.525 Y113.125
G1 F1800 X106.525 Y116.625 E5.07595
G1 X106.375 Y116.625 E5.09012
G1 X106.375 Y113.125 E5.23187
G1 X106.375 Y110.51 E5.47899
G1 X106.414 Y109.943 E5.5327
G1 X106.521 Y109.416 E5.58352
G1 X106.691 Y108.92 E5.63307
G1 X106.936 Y108.427 E5.68509
G1 X107.228 Y107.99 E5.73476
G1 X107.595 Y107.574 E5.78718
G1 X107.994 Y107.225 E5.83728
G1 X108.444 Y106.928 E5.88823
G1 X108.934 Y106.686 E5.93987
G1 X109.454 Y106.512 E5.99169
G1 X109.97 Y106.411 E6.04138
G1 X110.521 Y106.375 E6.09356
G1 X113.125 Y106.375 E6.33964
G1 X116.625 Y106.375 E6.67039
G1 X116.625 Y106.525 E6.68456
G1 X113.125 Y106.525 E6.82631
G1 X113.125 Y108.656 E7.02769
G1 X113.125 Y109.104 E7.07003
G1 X113.099 Y109.044 E7.07621
G1 X112.751 Y108.551 E7.11995
G1 X112.313 Y108.137 E7.1769
G1 X111.801 Y107.822 E7.23371
G1 X111.235 Y107.613 E7.29073
G1 X110.637 Y107.526 E7.34783
G1 X110.036 Y107.557 E7.4047
G1 X109.454 Y107.712 E7.46162
G1 X108.914 Y107.979 E7.51855
G1 X108.439 Y108.35 E7.5755
G1 X108.048 Y108.808 E7.63241
G1 X107.758 Y109.338 E7.6895
G1 X107.581 Y109.912 E7.74627
G1 X107.521 Y110.511 E7.80316
G1 X107.585 Y111.111 E7.86018
G1 X107.767 Y111.686 E7.91717
G1 X108.062 Y112.212 E7.97416
G1 X108.457 Y112.668 E8.03117
G1 X108.937 Y113.035 E8.08827
G1 X109.123 Y113.125 E8.1078
G1 X108.739 Y113.125 E8.13882
G1 X106.525 Y113.125 E8.34805
G0 F4500 X106.875 Y113.475
G1 F1800 X106.875 Y116.975 E8.6788
G1 X106.025 Y116.975 E8.75912
G1 X106.025 Y110.5 E9.37101
G1 X106.067 Y109.896 E9.42822
G1 X106.183 Y109.323 E9.48347
G1 X106.369 Y108.781 E9.53762
G1 X106.629 Y108.257 E9.5929
G1 X106.951 Y107.775 E9.64768
G1 X107.349 Y107.324 E9.70452
G1 X107.781 Y106.947 E9.7587
G1 X108.27 Y106.623 E9.81414
G1 X108.8 Y106.362 E9.86997
G1 X109.361 Y106.174 E9.92588
G1 X109.925 Y106.063 E9.9802
G1 X110.513 Y106.025 E10.03588
G1 X116.975 Y106.025 E10.64654
G1 X116.975 Y106.875 E10.72686
G1 X113.475 Y106.875 E11.05761
G1 X113.475 Y111.125 E11.45924
G1 X116.975 Y111.125 E11.78999
G1 X116.975 Y112.017 E11.87428
G1 X116.411 Y112.083 E11.92795
G1 X115.709 Y112.273 E11.99667
G1 X115.043 Y112.551 E12.06487
G1 X114.418 Y112.915 E12.13322
G1 X113.846 Y113.355 E12.20142
G1 X113.336 Y113.867 E12.26971
G1 X112.897 Y114.442 E12.33807
G1 X112.539 Y115.07 E12.40638
G1 X112.262 Y115.738 E12.47472
G1 X112.078 Y116.438 E12.54312
G1 X112.009 Y116.975 E12.59428
G1 X111.125 Y116.975 E12.67782
G1 X111.125 Y113.475 E13.00857
G1 X106.875 Y113.475 E13.4102
G0 F4500 X110.114 Y113.098
G1 F1800 X110.644 Y113.122 E13.46033
G1 X111.168 Y113.041 E13.51044
G1 X111.667 Y112.853 E13.56083
G1 X112.116 Y112.57 E13.61098
G1 X112.499 Y112.203 E13.66111
G1 X112.801 Y111.765 E13.71139
G1 X113.009 Y111.276 E13.76161
G1 X113.113 Y110.755 E13.81181
G1 X113.112 Y110.224 E13.86199
G1 X113.003 Y109.703 E13.91229
G1 X112.792 Y109.216 E13.96245
G1 X112.485 Y108.781 E14.01276
G1 X112.099 Y108.416 E14.06296
G1 X111.647 Y108.138 E14.11311
G1 X111.148 Y107.954 E14.16337
G1 X110.621 Y107.877 E14.2137
G1 X110.091 Y107.905 E14.26385
G1 X109.578 Y108.041 E14.31401
G1 X109.101 Y108.277 E14.3643
G1 X108.682 Y108.604 E14.41453
G1 X108.338 Y109.008 E14.46467
G1 X108.082 Y109.475 E14.515
G1 X107.926 Y109.982 E14.56512
G1 X107.873 Y110.51 E14.61527
G1 X107.929 Y111.039 E14.66554
G1 X108.09 Y111.546 E14.71581
G1 X108.35 Y112.01 E14.76607
G1 X108.698 Y112.412 E14.81632
G1 X109.121 Y112.735 E14.86661
G1 X109.598 Y112.966 E14.9167
G1 X110.114 Y113.098 E14.96703
G0 F4500 X110.162 Y112.775
;TYPE:WALL-OUTER
G1 F1800 X110.626 Y112.796 E15.01092
G1 X111.085 Y112.725 E15.05481
G1 X111.522 Y112.56 E15.09896
G1 X111.915 Y112.313 E15.14282
G1 X112.25 Y111.991 E15.18673
G1 X112.515 Y111.607 E15.23082
G1 X112.697 Y111.18 E15.27469
G1 X112.788 Y110.723 E15.31872
G1 X112.787 Y110.258 E15.36266
G1 X112.692 Y109.802 E15.40668
G1 X112.507 Y109.376 E15.45057
G1 X112.238 Y108.995 E15.49464
G1 X111.9 Y108.675 E15.53863
G1 X111.504 Y108.432 E15.58253
G1 X111.067 Y108.271 E15.62654
G1 X110.606 Y108.203 E15.67058
G1 X110.142 Y108.228 E15.71449
G1 X109.693 Y108.347 E15.75839
G1 X109.275 Y108.554 E15.80247
G1 X108.908 Y108.84 E15.84644
G1 X108.607 Y109.193 E15.89027
G1 X108.383 Y109.602 E15.93434
G1 X108.246 Y110.047 E15.97834
G1 X108.2 Y110.509 E16.02222
G1 X108.249 Y110.972 E16.06621
G1 X108.39 Y111.416 E16.11024
G1 X108.617 Y111.822 E16.15419
G1 X108.922 Y112.174 E16.19821
G1 X109.292 Y112.457 E16.24223
G1 X109.71 Y112.659 E16.2861
G1 X110.162 Y112.775 E16.3302
G0 F4500 X110.362 Y112.784
G0 X110.351 Y113.033
G0 X107.022 Y113.622
G0 X107.2 Y113.8
G1 F1800 X107.2 Y117.3 E16.66095
G1 X105.7 Y117.3 E16.8027
G1 X105.7 Y110.493 E17.44596
G1 X105.744 Y109.854 E17.50649
G1 X105.869 Y109.239 E17.56579
G1 X106.068 Y108.658 E17.62383
G1 X106.347 Y108.095 E17.68321
G1 X106.696 Y107.572 E17.74263
G1 X107.12 Y107.092 E17.80315
G1 X107.583 Y106.688 E17.86122
G1 X108.106 Y106.341 E17.92053
G1 X108.676 Y106.061 E17.98054
G1 X109.277 Y105.859 E18.04046
G1 X109.881 Y105.741 E18.09862
G1 X110.507 Y105.7 E18.1579
G1 X117.3 Y105.7 E18.79984
G1 X117.3 Y107.2 E18.94159
G1 X113.8 Y107.2 E19.27234
G1 X113.8 Y110.8 E19.61254
G1 X117.3 Y110.8 E19.94329
G1 X117.3 Y112.307 E20.0857
G1 X116.473 Y112.403 E20.16438
G1 X115.815 Y112.581 E20.22879
G1 X115.188 Y112.843 E20.29301
G1 X114.6 Y113.185 E20.35729
G1 X114.061 Y113.6 E20.42157
G1 X113.581 Y114.081 E20.48579
G1 X113.169 Y114.622 E20.55005
G1 X112.831 Y115.213 E20.61439
G1 X112.571 Y115.842 E20.67871
G1 X112.398 Y116.5 E20.743
G1 X112.311 Y117.174 E20.80722
G1 X112.307 Y117.3 E20.81914
G1 X110.8 Y117.3 E20.96155
G1 X110.8 Y113.8 E21.2923
G1 X107.2 Y113.8 E21.6325
G0 F4500 X107.2 Y114
G0 X106.95 Y114
G0 X107.065 Y112.435
;TYPE:SKIN
G1 F1800 X107.065 Y111.753 E21.69695
G1 X107.131 Y111.962 E21.71766
G1 X107.396 Y112.435 E21.76889
G1 X107.065 Y112.435 E21.80017
G0 F4500 X108.209 Y109.527
G0 X108.776 Y108.703
G0 X111.743 Y107.065
G1 F1800 X112.435 Y107.065 E21.86557
G1 X112.435 Y107.402 E21.89741
G1 X112.105 Y107.199 E21.93403
G1 X111.743 Y107.065 E21.9705
G0 F4500 X111.56 Y107.106
;TYPE:SKIN
G1 F1800 X111.336 Y106.882 E21.98547
G0 F4500 X111.319 Y107.112
G1 F1800 X111.089 Y106.882 E22.00084
G0 F4500 X111.03 Y107.07
G1 F1800 X110.841 Y106.882 E22.01344
G0 F4500 X110.74 Y107.028
G1 F1800 X110.594 Y106.882 E22.02319
G0 F4500 X110.489 Y107.024
G1 F1800 X110.358 Y106.894 E22.03191
G0 F4500 X110.254 Y107.036
G1 F1800 X110.126 Y106.909 E22.04043
G0 F4500 X110.018 Y107.048
G1 F1800 X109.909 Y106.94 E22.04768
G0 F4500 X109.812 Y107.089
G1 F1800 X109.702 Y106.98 E22.055
G0 F4500 X109.616 Y107.141
G1 F1800 X109.504 Y107.029 E22.06248
G0 F4500 X109.421 Y107.193
G1 F1800 X109.319 Y107.092 E22.06927
G0 F4500 X109.233 Y107.253
G1 F1800 X109.133 Y107.153 E22.07595
G0 F4500 X108.967 Y107.234
G1 F1800 X109.067 Y107.335 E22.08266
G0 F4500 X108.902 Y107.417
G1 F1800 X108.801 Y107.316 E22.08941
G0 F4500 X108.642 Y107.404
G1 F1800 X108.736 Y107.499 E22.09573
G0 F4500 X108.582 Y107.592
G1 F1800 X108.492 Y107.502 E22.10174
G0 F4500 X108.344 Y107.601
G1 F1800 X108.443 Y107.7 E22.10836
G0 F4500 X108.304 Y107.809
G1 F1800 X108.207 Y107.712 E22.11484
G0 F4500 X108.074 Y107.827
G1 F1800 X108.166 Y107.918 E22.12095
G0 F4500 X108.038 Y108.038
G1 F1800 X107.943 Y107.943 E22.1273
G0 F4500 X107.827 Y108.074
G1 F1800 X107.924 Y108.171 E22.13378
G0 F4500 X107.81 Y108.305
G1 F1800 X107.711 Y108.206 E22.1404
G0 F4500 X107.6 Y108.342
G1 F1800 X107.696 Y108.439 E22.14685
G0 F4500 X107.593 Y108.583
G1 F1800 X107.5 Y108.49 E22.15306
G0 F4500 X107.401 Y108.639
G1 F1800 X107.505 Y108.743 E22.16001
G0 F4500 X107.418 Y108.903
G1 F1800 X107.315 Y108.8 E22.16689
G0 F4500 X107.233 Y108.965
G1 F1800 X107.331 Y109.063 E22.17344
G0 F4500 X107.258 Y109.238
G1 F1800 X107.152 Y109.132 E22.18052
G0 F4500 X107.089 Y109.317
G1 F1800 X107.2 Y109.427 E22.18791
G0 F4500 X107.026 Y109.501
G1 F1800 X107.142 Y109.617 E22.19566
G0 F4500 X106.979 Y109.701
G1 F1800 X107.083 Y109.805 E22.20261
G0 F4500 X106.937 Y109.907
G1 F1800 X107.06 Y110.03 E22.21083
G0 F4500 X106.909 Y110.126
G1 F1800 X107.037 Y110.254 E22.21938
G0 F4500 X106.893 Y110.358
G1 F1800 X107.014 Y110.479 E22.22747
G0 F4500 X106.882 Y110.594
G1 F1800 X107.036 Y110.749 E22.23779
G0 F4500 X106.882 Y110.841
G1 F1800 X107.067 Y111.027 E22.25019
G0 F4500 X106.882 Y111.089
G1 F1800 X107.123 Y111.331 E22.26632
G0 F4500 X107.116 Y111.57
G1 F1800 X106.882 Y111.336 E22.28196
G0 F4500 X109.646 Y112.838
G0 X110.639 Y112.985
G0 X111.606 Y112.729
G0 X113.962 Y111.9
G0 X113.962 Y111.982
;TYPE:SKIN
G1 F1800 X114.092 Y112.112 E22.29933
G0 F4500 X113.796 Y112.311
G1 F1800 X113.587 Y112.102 E22.32727
G0 F4500 X113.398 Y112.408
G1 F1800 X113.516 Y112.526 E22.34304
G0 F4500 X113.566 Y112.592
G0 X112.59 Y113.566
G0 X112.526 Y113.516
G1 F1800 X112.408 Y113.398 E22.35881
G0 F4500 X112.105 Y113.59
G1 F1800 X112.311 Y113.796 E22.38634
G0 F4500 X112.111 Y114.091
G1 F1800 X111.981 Y113.961 E22.40371
G0 F4500 X111.65 Y113.961
G10
;MESH:Body1.stl(1)
G0 X112.679 Y115.14
G0 X113.635 Y115.608
G0 X115.471 Y117.418
G0 X115.943 Y118.372
G0 X116.774 Y119.071
G0 X117.819 Y118.669
;TYPE:WALL-INNER
G11
G1 F1800 X117.509 Y119.236 E22.46478
G1 X116.095 Y119.236 E22.5984
G1 X116.33 Y119.138 E22.62246
G1 X117.036 Y118.728 E22.69961
G1 X117.679 Y118.231 E22.77641
G1 X118.252 Y117.655 E22.85319
G1 X118.747 Y117.007 E22.93025
G1 X119.153 Y116.299 E23.00737
G1 X119.236 Y116.097 E23.02801
G1 X119.236 Y116.598 E23.06604
G1 X119.236 Y117.519 E23.15307
G1 X118.786 Y117.745 E23.20066
G1 X118.257 Y118.157 E23.26402
G1 X117.819 Y118.669 E23.3277
G0 F4500 X120.178 Y118.1
G0 X123.078 Y118.382
G1 F1800 X122.977 Y118.286 E23.34086
G1 X124.336 Y118.286 E23.46929
G1 X124.336 Y120.54 E23.68229
G1 X124.3 Y121.062 E23.73174
G1 X124.2 Y121.552 E23.779
G1 X124.044 Y122.007 E23.82445
G1 X123.826 Y122.45 E23.87111
G1 X123.546 Y122.869 E23.91873
G1 X123.229 Y123.227 E23.96392
G1 X122.847 Y123.56 E24.01181
G1 X122.439 Y123.83 E24.05804
G1 X121.99 Y124.053 E24.10542
G1 X121.521 Y124.208 E24.1521
G1 X121.044 Y124.302 E24.19804
G1 X120.532 Y124.336 E24.24653
G1 X118.286 Y124.336 E24.45878
G1 X118.286 Y123.345 E24.55243
G1 X118.286 Y122.991 E24.58588
G1 X118.812 Y123.394 E24.62672
G1 X119.416 Y123.687 E24.69016
G1 X120.071 Y123.854 E24.75404
G1 X120.742 Y123.885 E24.81751
G1 X121.408 Y123.782 E24.8812
G1 X122.043 Y123.543 E24.94532
G1 X122.609 Y123.184 E25.00866
G1 X123.097 Y122.72 E25.07229
G1 X123.48 Y122.164 E25.13609
G1 X123.741 Y121.544 E25.19966
G1 X123.874 Y120.886 E25.2631
G1 X123.873 Y120.21 E25.32698
G1 X123.733 Y119.55 E25.39074
G1 X123.466 Y118.933 E25.45427
G1 X123.078 Y118.382 E25.51796
G0 F4500 X124.536 Y117.936
G1 F1800 X124.536 Y114.436 E25.84871
G1 X124.686 Y114.436 E25.86288
G1 X124.686 Y117.936 E26.00463
G1 X124.686 Y120.55 E26.25165
G1 X124.647 Y121.111 E26.3048
G1 X124.539 Y121.642 E26.356
G1 X124.367 Y122.145 E26.40624
G1 X124.131 Y122.623 E26.45662
G1 X123.823 Y123.084 E26.50901
G1 X123.475 Y123.477 E26.55861
G1 X123.06 Y123.839 E26.61066
G1 X122.613 Y124.135 E26.66132
G1 X122.126 Y124.376 E26.71267
G1 X121.611 Y124.547 E26.76395
G1 X121.089 Y124.65 E26.81423
G1 X120.54 Y124.686 E26.86622
G1 X117.936 Y124.686 E27.1123
G1 X114.436 Y124.686 E27.44305
G1 X114.436 Y124.536 E27.45722
G1 X117.936 Y124.536 E27.59897
G1 X117.936 Y121.939 E27.84439
G1 X118.123 Y122.272 E27.88048
G1 X118.519 Y122.729 E27.93762
G1 X118.997 Y123.095 E27.99452
G1 X119.537 Y123.357 E28.05123
G1 X120.123 Y123.506 E28.10837
G1 X120.723 Y123.534 E28.16514
G1 X121.319 Y123.442 E28.22212
G1 X121.886 Y123.228 E28.2794
G1 X122.393 Y122.907 E28.3361
G1 X122.829 Y122.492 E28.39299
G1 X123.171 Y121.995 E28.45
G1 X123.405 Y121.44 E28.50692
G1 X123.524 Y120.851 E28.5637
G1 X123.523 Y120.247 E28.62078
G1 X123.398 Y119.657 E28.67777
G1 X123.159 Y119.105 E28.73461
G1 X122.812 Y118.612 E28.79159
G1 X122.375 Y118.198 E28.84847
G1 X121.95 Y117.936 E28.89565
G1 X122.375 Y117.936 E28.90953
G1 X124.536 Y117.936 E29.11375
G0 F4500 X120.178 Y118.1
G0 X117.819 Y119.399
G1 F1800 X117.761 Y119.586 E29.13225
G1 X114.436 Y119.586 E29.44646
G1 X114.436 Y119.356 E29.4682
G1 X114.718 Y119.323 E29.49503
G1 X115.466 Y119.119 E29.5683
G1 X116.174 Y118.824 E29.64078
G1 X116.84 Y118.437 E29.71357
G1 X117.447 Y117.968 E29.78606
G1 X117.988 Y117.424 E29.85856
G1 X118.455 Y116.813 E29.93123
G1 X118.838 Y116.145 E30.004
G1 X119.13 Y115.435 E30.07655
G1 X119.327 Y114.692 E30.14919
G1 X119.36 Y114.436 E30.17358
G1 X119.586 Y114.436 E30.19493
G1 X119.586 Y117.752 E30.5083
G1 X119.514 Y117.771 E30.51533
G1 X118.974 Y118.042 E30.57243
G1 X118.5 Y118.411 E30.62919
G1 X118.109 Y118.869 E30.6861
G1 X117.819 Y119.399 E30.74319
G0 F4500 X118.123 Y121.07
G0 X118.521 Y121.988
G0 X119.079 Y122.546
G0 X120.175 Y123.158
G1 F1800 X120.704 Y123.183 E30.79324
G1 X121.229 Y123.102 E30.84344
G1 X121.729 Y122.913 E30.89395
G1 X122.177 Y122.63 E30.94403
G1 X122.561 Y122.264 E30.99416
G1 X122.862 Y121.826 E31.04438
G1 X123.069 Y121.336 E31.09465
G1 X123.174 Y120.816 E31.14478
G1 X123.173 Y120.284 E31.19506
G1 X123.063 Y119.764 E31.24528
G1 X122.852 Y119.277 E31.29544
G1 X122.546 Y118.842 E31.3457
G1 X122.16 Y118.477 E31.3959
G1 X121.709 Y118.198 E31.44602
G1 X121.208 Y118.015 E31.49642
G1 X120.682 Y117.937 E31.54667
G1 X120.153 Y117.966 E31.59674
G1 X119.638 Y118.1 E31.64702
G1 X119.162 Y118.339 E31.69736
G1 X118.743 Y118.665 E31.74753
G1 X118.399 Y119.069 E31.79767
G1 X118.143 Y119.536 E31.848
G1 X117.987 Y120.042 E31.89803
G1 X117.934 Y120.571 E31.94828
G1 X117.99 Y121.1 E31.99855
